<?xml version="1.0" encoding="UTF-8"?>
<map version="1.10" tiledversion="1.12.1" orientation="orthogonal" renderorder="right-down" width="100" height="50" tilewidth="16" tileheight="16" infinite="0" nextlayerid="3" nextobjectid="41">
 <tileset firstgid="1" source="Plateforme.tsx"/>
 <tileset firstgid="2561" source="mur.tsx"/>
 <layer id="1" name="Calque de Tuiles 1" width="100" height="50">
  <data encoding="csv">
2643,2643,2643,2643,2643,2643,2643,2643,2643,2643,2643,2643,2643,2643,2643,2643,2643,2643,2643,2643,2643,2643,2643,2643,2643,2643,2643,2643,2643,1391,1391,1391,1392,1392,1391,1391,1391,1391,1392,1391,1391,1392,1392,2643,2643,2643,2643,2643,2643,2643,2643,2643,2643,2643,2643,2643,2643,2643,2643,2643,2643,2643,2643,2643,2643,2643,2643,2643,2643,2643,2643,2643,2643,2643,2643,2643,2643,2643,2643,2643,2643,2643,2643,2643,2643,2643,2643,2643,2643,2643,2643,2643,2643,2643,2643,2643,2643,2643,2643,2643,
2643,2643,2667,2667,2667,2667,2667,2667,2667,2667,2667,2667,2667,2667,2667,2667,2667,2667,2667,2667,2667,2667,2667,2667,2667,2667,2667,2667,2643,2643,2643,2643,2643,2643,2643,2643,2643,2643,2643,2643,2643,2643,2643,2667,2667,2667,2667,2667,2667,2643,2667,2667,2667,2667,2667,2667,2667,2667,2667,2667,2667,2667,2667,2667,2667,2667,2667,2667,2667,2643,2667,2667,2667,2667,2667,2667,2667,2667,2667,2667,2667,2667,2667,2667,2667,2667,2667,2667,2667,2667,2667,2667,2667,2667,2667,2667,2667,2667,2667,2643,
2667,2643,1391,1392,1391,1392,1392,1392,1328,1327,1391,1392,1391,1327,1391,1392,1392,1392,1328,1391,1391,1327,1391,1392,1391,1327,1327,1327,2667,2667,2667,2667,2667,2667,2667,2667,2667,2667,2667,2667,2667,2667,2667,2667,1391,1391,1392,1392,2643,2643,1839,1775,1775,1327,1328,1328,1327,1327,1328,1328,1328,1392,1392,1711,1839,1711,1712,1327,1327,2643,1327,1327,1327,1328,1328,1327,1328,1328,1328,1328,1328,1903,1903,1903,1903,1903,1903,1839,1327,1328,1391,1327,1391,1391,1392,1328,1391,1392,1328,2667,
1135,2643,2643,1392,1328,1391,1391,1392,1392,1328,1327,1327,1328,1713,1714,1713,1713,1714,1713,1713,1713,1714,1711,1711,1711,1711,1712,1713,1711,1711,1711,1711,1711,2643,1711,1711,1711,1711,1712,1713,1714,1392,1392,1392,1392,1392,1391,1392,2643,2643,1711,1712,1713,1327,1328,1327,1328,1328,1392,1392,1328,1391,1392,1711,1903,1711,1327,1328,1391,2643,1391,1391,1327,1328,1328,1327,1327,1327,1328,1392,1392,1778,1778,1778,1778,1778,1778,1903,1327,1327,1327,1328,1391,1391,1392,1392,1328,1392,1392,2643,
1135,2667,2643,1392,1392,1391,1391,1327,1391,1392,1391,1392,2643,2643,2643,2643,2643,2643,2643,2643,2643,2643,2643,1711,1711,1711,1711,1711,1775,1775,2643,2643,2643,2667,1775,1775,1775,1711,1711,1711,1712,1713,1714,1391,1391,1391,1392,1391,2643,2643,1711,1712,1713,1327,1327,1328,1328,1392,1391,1392,1392,1392,1711,1775,1903,1711,1327,1328,1391,2643,1328,1392,1327,1327,1328,1391,1391,1327,1328,1391,1392,1842,1842,1842,1842,1842,2643,1842,1391,1391,1327,1327,1327,1328,1391,1392,1392,1391,1392,2667,
1199,1199,2643,1391,1392,1328,1392,1391,1327,2643,2643,2643,2667,2667,2667,2667,2667,2667,2667,2667,2667,2667,2643,2643,1711,1775,1775,1775,1839,1839,2667,2667,2667,2643,2643,1839,1839,1775,1775,1711,1712,1713,1714,1391,1391,1391,1391,1392,2643,2643,2643,2643,2643,1327,1328,1328,1392,1391,1392,1391,1392,1392,1711,1839,1903,2643,2643,2643,2643,2643,2643,1327,1328,1328,1328,1328,1327,1328,1328,1391,1392,1906,1906,1906,1906,1906,2667,1906,1906,1906,1391,1391,1327,1327,1327,1391,1392,1328,2643,2643,
1199,1199,2643,1391,1392,1392,1391,1392,1392,2667,2667,2667,2667,1775,1775,1775,1839,1839,1839,1839,2667,2667,2667,2643,2643,1839,1839,1839,1903,1903,2667,1903,1903,2667,2643,2643,2643,2643,2643,1711,1711,1712,1713,1714,1392,1392,1391,1391,2643,2643,2667,2667,2643,2643,2643,2643,2643,2643,2643,2643,1392,1903,1711,1903,1903,2667,2667,2667,2667,2667,2667,1391,1392,1392,1392,1328,1328,1328,1392,1391,1392,1778,1778,1778,1778,2643,2667,1778,1778,1778,1778,1714,1391,1391,1391,1391,1392,1392,2643,2667,
1199,1199,2643,1200,1391,1392,1327,1392,1392,2667,1711,1775,1775,1839,1839,1839,1903,1711,1711,1711,1711,1711,1711,2667,2667,1711,1712,1713,1714,1904,2667,1906,1711,1711,2667,2667,2667,2667,2643,1775,1711,1712,1713,2643,2643,2643,2643,2643,2643,2643,1711,1712,2667,2667,2667,2667,2667,2667,2667,2667,1392,1903,1775,1903,1904,1711,1391,1327,1327,1327,1391,1392,1392,1392,1392,1392,1392,1392,1391,1391,1392,1842,2643,2643,2643,2667,2667,1842,1842,1842,1842,1778,1778,1778,1778,1391,1391,1392,2643,2643,
1135,2643,2643,1200,1199,1391,1327,1392,2643,2667,1775,1839,1839,1903,1711,1711,1711,1775,1775,1775,1775,1775,1775,1775,1775,1775,1711,1711,1711,1712,2667,2643,1775,1775,1711,1711,1712,1713,2643,2643,1711,1711,1712,2667,2667,2667,2667,2667,2643,2643,1711,1712,1713,1714,1391,1391,1391,1392,1391,1391,1392,1904,1839,1903,1904,1711,1712,1391,1391,1391,1327,1327,2643,2643,2643,2643,1391,1391,1391,2643,2643,2643,2667,2667,2667,2667,1328,1328,1328,1906,1906,1842,1842,1842,1842,1391,1391,2643,2643,2667,
1135,2643,2667,1136,1199,1391,2643,2643,2667,2667,1839,1903,1711,1711,1775,1775,1775,1839,1839,1839,1839,1839,1839,1839,1839,883,883,883,883,1711,2667,2667,1583,1583,1583,1711,1711,1712,2667,2667,1775,1711,1712,2643,1714,1327,1327,2667,2643,2643,1711,1712,1713,1714,1711,1903,1391,1327,1391,1392,1904,1905,1903,1903,1904,1711,1712,1713,1714,1906,2643,2643,2667,2667,2667,2643,2643,2643,2643,2667,2667,2667,2667,1328,1327,1327,1328,1328,1328,1328,1328,1906,2643,2643,2643,2643,2643,2643,2667,2643,
1392,2643,1328,1391,1391,1392,2643,2667,2667,1839,1903,1711,2643,2643,1839,1839,1711,1711,1711,1711,1711,1711,883,883,883,883,883,883,883,883,883,2667,1711,1712,1583,1583,1583,1711,1712,1713,1839,1711,1712,2667,1714,1713,1714,2667,2643,2643,1711,1712,1713,1711,1775,1903,1711,1391,1391,1392,1904,1905,1906,1714,1778,1711,1712,1713,1714,2643,2667,2667,1839,1839,1839,2667,2643,2667,2667,2667,1327,1328,1328,1327,1328,1328,1328,1392,2643,2643,2643,2643,2643,2667,2667,2667,2667,2667,1905,2667,
1391,2643,1392,1391,1392,1392,2667,1775,1903,1711,1711,1775,2667,2667,2643,1711,1775,1775,1775,1775,883,883,883,883,1775,1711,1711,2643,2643,2643,2643,2643,2643,1711,1712,1713,1583,1775,1711,1712,1903,1711,1712,2667,1714,1713,1714,2667,2643,2643,1711,1712,1713,1775,1839,1903,1775,1903,1903,1904,1905,1906,1713,1714,1842,1711,1712,1713,1711,2667,2667,1903,1903,1903,1903,1903,2643,1903,1903,1903,1327,1328,1327,1328,1328,1392,1392,2643,2643,2667,2667,2667,2667,1328,1839,1839,1839,1839,1903,2643,
1392,2643,1328,1327,1392,1711,2643,2643,1903,1775,1775,1839,1903,2667,2667,1775,1839,1839,1839,883,883,883,1839,1583,1583,1583,1583,2667,2667,2667,2667,2643,2643,883,883,1713,1583,1714,1775,1711,1711,1711,1712,2667,1714,1712,1713,2667,2667,2643,1711,1712,1711,1839,1903,2643,2643,2643,2643,2643,1906,1713,1714,1327,1327,1327,1327,1327,2643,2667,1903,1904,1905,1906,1906,1906,2643,1842,1842,1327,1328,1327,1328,1328,1392,1327,1328,2667,2667,1328,1391,1392,1392,1328,1903,1903,1903,1903,1903,2667,
1391,2643,1392,1392,1392,1775,2667,2643,2643,1839,1839,1903,1711,1775,2667,883,883,883,883,883,883,883,1711,1711,1711,1711,1712,2643,2667,883,883,2667,2643,2643,883,1583,1711,1712,1713,1714,1711,1711,1712,2667,1714,1711,1712,1713,2667,2643,1711,1711,1775,1903,1903,2667,2667,2667,2667,2667,2643,2643,2643,2643,2643,2643,2643,2643,2667,2667,1328,1839,1903,1904,1905,1906,2643,2643,1906,1327,1327,1327,1328,1327,1328,1327,1327,1327,1327,1327,1327,1328,1392,1328,1328,1842,1842,1842,1842,2643,
1391,2643,1391,1392,1711,1839,1903,2667,2643,1903,1903,1904,1775,2643,2667,883,883,883,883,883,1711,1711,1775,1775,1775,1711,1711,2667,2667,1714,883,883,2667,2643,2643,2643,1711,1711,1712,1713,1714,1711,2643,2667,1714,1711,1712,1713,2667,2643,1775,1711,1839,1903,1903,1904,1903,1904,1905,2667,2667,2667,2667,2667,2667,2667,2667,2667,2643,1327,1328,1711,1711,1711,1711,1711,2667,2643,2643,1327,1327,1327,1328,1391,1327,1391,1391,1391,1391,1391,1391,1392,1392,1392,1392,1906,1906,1906,1906,2667,
1392,2643,1327,1392,1775,1903,1711,2643,2643,1903,1904,883,883,2667,2667,883,883,883,1711,1711,2643,2643,2643,2643,2643,2643,2643,2643,1714,1714,883,883,883,2667,2667,2643,883,1711,1711,1711,1712,1713,2667,2667,1714,1714,1712,1713,1714,2643,1839,1711,1903,1903,1903,1904,1903,1904,1905,1391,1391,2667,1392,1391,1391,1327,1327,1328,2643,1328,1328,1775,1775,1775,1775,1775,1839,2667,2643,2643,1327,1327,1328,1327,1391,1391,1391,1391,1392,1392,1327,1327,1391,1392,1328,1839,1903,1904,1905,2643,
2643,2643,1392,1392,1839,1903,1775,2643,2667,1904,883,883,1903,2667,2667,883,1711,1711,1711,1775,2643,2643,2643,2643,2643,2643,2643,2643,2643,2643,1713,1714,1713,1714,883,2667,883,883,1775,1711,1711,1712,2667,2643,1714,1713,1714,1713,1714,2643,1903,1775,1903,1904,1903,1904,1903,1904,1327,1391,1392,2667,1392,1328,1392,1391,1327,1328,2643,1328,1392,1839,1839,1839,1839,1839,1903,1903,2667,2643,2643,2643,2643,2643,2643,2643,2643,2643,2643,2643,2643,1391,1391,1392,1392,1903,1903,1904,1905,2667,
2643,2667,1392,1711,1903,1711,2643,2643,1903,883,883,1839,1903,1583,2667,1711,1775,1711,1775,2643,2643,2667,2667,2667,2667,2667,2667,2667,2643,2643,1711,1711,1711,1711,1711,1712,1713,1714,883,1775,1775,1711,2667,2667,1713,1714,1714,1714,1714,2643,1711,1839,1903,1904,1903,1904,1903,1904,1327,1391,1392,2667,1328,1328,1328,1328,1391,1392,2643,1392,1903,1903,1903,1903,1903,1903,1903,1904,1905,2643,2667,2667,2667,2667,2667,2667,2667,2667,2667,2667,2667,1391,1392,1391,1392,1906,1906,1906,1906,2643,
2643,1327,1392,1775,1903,2643,2643,2667,1904,883,1906,1903,1583,883,2667,1775,1711,1775,1839,2667,2667,2667,2667,1839,1839,1839,1711,1711,2667,2643,1711,1712,1713,1714,1711,1712,1713,1714,883,883,883,1775,1711,2667,1713,1714,1713,1714,2643,2643,1711,1903,1903,1904,1903,1904,1905,1903,1327,1328,1391,2643,1392,1328,1328,1328,1391,1392,2667,1903,1903,1904,1905,1906,1906,1906,1906,1906,1906,2643,1327,1391,1391,1391,1391,1327,1327,1327,1391,1391,1391,1391,1392,1391,1392,1903,1904,1905,1906,2667,
2643,1392,1392,1839,2643,2643,2667,1904,1905,883,1905,1903,883,2643,2667,1839,1775,1839,1903,2667,2667,2643,1839,1903,1903,1903,1775,1775,1775,2643,1775,1776,1777,1778,1711,1711,1712,1713,1714,883,883,883,883,2667,1712,1713,1714,1714,2667,2643,2643,2643,2643,2643,2643,1906,1842,1903,1327,1327,1328,2667,1392,1392,1392,1328,1392,1392,1392,1711,1775,1775,1775,2643,2643,2643,2643,2643,2643,2643,1328,1328,1327,1327,1327,1391,1391,1391,1391,1392,1391,1327,1391,1392,1775,1775,1775,1775,1775,2643,
2643,1392,1392,1903,2667,2667,1903,1904,1905,883,1905,1583,883,2667,2667,1903,1839,1903,1903,2667,2643,2667,1903,1904,1905,1711,1839,1839,1839,2643,1839,1840,1841,1842,1775,1711,1712,1713,1714,1711,883,1903,883,883,1711,1712,1713,1714,2667,2643,2667,2667,2667,2667,2667,1906,1906,1842,1391,1327,1327,2667,2643,2643,2643,2643,1391,1391,1392,1775,1839,1839,1327,2667,2667,2667,2667,2667,2667,2643,1328,1392,1328,1391,1391,1391,1391,1391,1327,1327,1327,1391,1391,1392,1839,1839,1839,1839,1839,2667,
2643,1392,1392,1903,2667,1903,1904,1905,1906,883,1905,883,883,2667,2643,1903,1903,1903,1904,2667,2667,2667,1904,1905,1906,1775,1903,1903,1903,2643,2643,1904,1905,1906,1839,1711,1712,1713,1714,883,883,1711,1903,883,1711,1712,1713,1714,2643,2643,1711,1712,1713,1903,1904,1905,1906,1906,1906,1391,1391,2667,2667,2667,2667,2667,1391,1392,1714,1839,1903,1327,1328,1327,1328,1327,1328,1328,1392,2667,1392,1328,1392,2643,1903,1903,1903,1903,1391,1391,1391,1391,2643,2643,2643,2643,2643,2643,2643,2643,
2643,1392,1392,1903,2667,2643,1904,1905,1906,883,883,883,883,2667,2667,2643,1903,1904,1905,1906,2643,2667,1904,1905,2643,2643,2643,2643,2643,2643,2667,1714,1714,1714,1714,1714,1714,1714,1714,883,883,1775,1711,2643,1711,1712,1713,1714,2643,2667,1711,1712,1713,1714,1906,1903,1904,1905,1906,1842,1714,2667,1713,1714,1711,1712,1713,1714,1778,1903,1903,1327,1327,1328,1328,1327,1327,1328,1328,1328,1328,1392,1392,2643,1714,1714,1714,1714,1714,1714,1714,1714,2643,2667,2667,2667,2667,2667,2667,2667,
2643,1392,1392,1903,2667,2667,2643,1905,1906,1778,883,883,883,1583,2667,2667,1903,1904,2643,2643,2667,2667,1904,1905,2643,2643,2643,2643,2643,2643,1778,1778,1778,1778,1778,1778,1778,1778,1778,1903,883,883,1711,2667,1711,1712,1713,1714,2643,2667,1711,1712,1713,1714,1906,1903,1904,1905,1906,1906,2643,2667,1713,1711,1711,1712,1713,1714,1842,1903,1904,1327,1327,1328,1392,1327,1327,1328,1392,1392,1392,1392,1392,2643,2643,2643,2643,2643,2643,1778,1778,1778,2643,1778,1778,1778,1778,1778,1778,2643,
2643,1392,1392,1903,1904,2667,2667,1905,1906,1842,883,883,883,1583,1583,2667,2643,2643,2643,2667,2667,1906,1906,1903,2643,2643,2643,2643,2667,2667,1842,1842,1842,1842,1842,1842,1842,1842,1842,1713,883,883,2643,2667,1711,1712,1713,1714,2643,2667,1711,1712,1713,1714,1906,1711,1903,1904,1905,2643,2667,2667,1714,1714,1711,1712,1713,1714,1906,1775,1903,1391,1327,1327,1327,1327,1391,1392,1392,1391,1392,1392,1392,2643,2667,2667,2667,2667,2643,1842,1842,1842,2667,1842,1842,1842,1842,1842,1842,2667,
2643,1392,1392,1328,1903,2643,2643,1904,1905,1906,883,883,883,883,883,2667,2667,2667,2667,1904,1905,1906,1906,1906,2667,2667,2667,2667,1906,1906,1906,1906,2643,2643,2643,2643,1906,1906,1906,883,883,2643,2667,2667,1711,1712,1713,1714,2643,2667,1711,1712,1713,1714,1711,1711,1903,1904,2643,2667,2667,2667,1778,1778,1711,1712,1713,1714,1713,2643,2643,2643,2643,1391,1327,1391,1391,1392,1391,1392,1392,1391,1392,2643,1906,1906,1906,1906,2643,1906,1906,1906,1906,1906,1906,1906,1906,1906,1906,2643,
2643,1392,1392,1392,1903,2667,2643,2643,2643,1906,1906,883,1778,1903,883,883,883,883,883,883,1903,1904,1905,1906,1906,1906,1842,1842,1842,1903,2643,2643,2643,2667,2667,2643,2643,2643,883,883,883,2667,2667,1711,1712,1713,1714,1714,2643,2667,1711,1712,1713,1714,2643,2643,2643,2643,2667,2667,1327,1328,1842,1842,1711,1712,1713,1714,1711,2667,2667,2667,2667,1775,1391,1391,1391,1391,2643,2643,1392,1711,2643,2643,1711,1711,1711,1711,2643,1711,1711,1327,1328,1328,1328,1328,1711,1903,1904,2667,
2643,1391,1392,1392,1903,1904,2667,2667,2643,2643,1906,883,883,883,1904,883,883,883,883,883,883,883,1903,1904,1905,1906,1906,1906,1906,1842,2667,2643,2643,883,1583,2667,2667,2667,2643,2643,2643,2667,1711,1711,1712,1713,1714,1778,2667,2667,1711,1712,1713,1711,2667,2667,2667,2667,2667,2667,1391,1392,1906,2643,1711,1712,1713,1714,1775,1839,1839,1839,2643,1839,1839,1839,1839,1839,2643,2643,1839,2643,2643,2667,1775,1775,1775,1775,2643,2643,2643,2643,2643,1392,1392,1392,1328,1328,1903,2643,
2643,1392,1392,1392,1392,1903,1904,1905,2667,2643,2643,2643,2643,2643,2643,2643,883,883,883,883,883,883,883,883,1583,1903,1904,1905,1906,2643,2643,2667,2667,883,883,883,883,2643,2667,2667,2643,2643,1711,1712,1713,1714,1778,1842,2643,2667,1711,1712,1711,1327,2667,1327,1327,1327,1327,1328,1328,1328,1328,2667,1711,1712,1713,1714,1839,1903,1903,1903,2667,1903,1903,1903,1903,1903,2643,2643,2643,2643,2667,1839,1839,1839,1839,2643,2667,2667,2667,2667,2667,1327,1328,1328,1328,1392,1328,2667,
2643,1391,1391,1392,1392,1903,1904,1905,1906,2667,2667,2667,2667,2667,2667,2643,1904,883,883,883,1583,1583,883,883,1583,1583,1583,1583,1583,2643,2667,1583,1583,1711,883,883,883,2667,2667,883,2643,2643,1713,1714,1714,1778,1842,1906,2667,2667,1711,1712,1775,1327,2667,1391,1327,1391,1391,1392,1392,1392,1392,2667,1711,1712,1713,1714,1903,1903,1904,1905,2667,1906,1842,2643,2643,2643,2643,2643,2667,2667,1903,1903,1903,1903,1903,2643,1328,1328,1392,1327,1327,1327,1327,1327,1328,1392,1392,2643,
2643,1391,1392,1391,1392,1392,1903,1904,1905,1906,1903,1904,1905,883,883,2643,1903,1904,883,883,883,883,1583,883,2643,2643,2643,2643,2643,2643,1583,883,883,883,883,883,1714,883,883,1712,2667,2643,2643,2643,2643,1842,1906,2643,2667,1391,1711,1712,1327,1328,2667,1327,1391,1391,1392,1328,1328,1391,1392,2667,1711,1712,1713,1714,1327,1328,1328,1327,2643,2643,2643,2643,2667,2667,2667,2667,1842,1842,1842,1842,1842,1842,1327,2643,1328,1392,1391,1391,1391,1327,1327,1327,1328,1391,1392,2667,
2643,1392,1391,1392,1391,1392,1392,1903,1904,1905,1906,1906,1903,1904,883,2643,1903,1904,1905,883,883,883,2643,2643,2643,2667,2667,2667,2667,2667,883,883,883,883,1714,883,883,1714,1714,1714,1714,2667,2667,2667,2643,2643,2643,2667,2667,1391,1711,1712,1327,1328,2667,1327,1327,1391,1392,1392,1392,1391,1392,2667,1711,1712,1713,1327,1328,1327,1328,1328,2643,2667,2667,2667,1392,1392,1328,1906,1906,1906,1906,1906,1906,1906,1327,2667,1392,1327,1327,1327,1327,1391,1391,1327,1328,1328,1392,2643,
2643,1391,1391,1391,1392,1391,1392,1392,1903,1904,1905,1906,1906,1842,1778,2643,2643,2643,1904,1905,2643,2643,2643,2667,2667,883,883,883,883,883,883,883,883,883,883,1778,1778,1778,1778,1778,1778,1778,1842,1842,2667,2667,2667,2667,1906,1391,1711,1712,1327,1327,2667,2643,1327,1391,1391,1392,1392,1391,1392,2667,1711,1711,1327,1328,1327,1328,1392,2643,2643,1327,1328,1327,1328,1328,1392,1328,1842,1842,1842,1842,1711,1711,1327,1328,1391,1391,1327,1328,1391,1391,1392,1327,1328,1328,1391,2667,
2643,1327,1392,1391,1391,1392,1391,1391,1392,1903,1904,1905,1906,1906,1842,2667,2667,2643,2643,2643,2643,2667,2667,2643,2643,883,883,883,883,883,883,883,1906,1906,1842,1842,1842,1842,1842,1842,1842,1842,1906,1906,1714,1714,1778,2667,1391,1327,1711,1712,1391,1327,2667,2667,1391,1391,1392,1391,1392,1392,1714,2667,1775,1327,1327,1328,1328,1392,2643,2643,2667,1328,1392,1391,1392,1328,1392,1392,1711,1711,1711,1711,1775,1775,1327,1327,1327,1328,1391,1392,1391,1392,1327,1327,1328,1327,1328,2643,
2643,1327,1391,1392,1391,2643,1392,1392,1391,1392,1903,1904,1905,1906,1906,1906,1903,2667,2667,2667,2667,1904,1905,2667,2667,1906,1842,1842,1842,1842,1903,1904,1905,1906,1906,1906,1906,1906,2643,1906,1906,1906,1906,1713,1714,1778,1842,2667,1391,1327,1711,1712,1713,1391,1391,2643,2643,2643,2643,2643,2643,2643,2643,2643,2643,2643,2643,2643,2643,1392,2643,2667,1328,1392,1392,1391,1392,1328,1391,1392,1775,1775,1775,1775,1839,1839,1391,2643,2643,2643,2643,1392,1328,1328,1328,1327,1328,1328,1328,2667,
2643,1392,1327,1391,1392,2667,2643,1391,1392,1391,1391,1391,1903,1904,1905,1906,1903,1904,1905,1906,1906,1842,2643,2667,1905,1906,1906,2643,2643,1906,1906,1906,1906,1906,1906,1906,1906,2643,2667,1778,1842,1906,1714,1714,1778,1842,2643,2667,1327,1392,1711,1712,1713,1903,1903,2667,2667,2643,2643,2643,2667,2667,2667,2667,2667,2667,2667,2667,2667,2643,2667,1327,1328,1391,1327,1391,1392,1392,1391,1392,2643,1839,1839,1839,1903,1903,1327,2667,2667,2667,2667,1392,1392,1392,1328,1328,1328,1328,1392,2643,
2643,1391,1327,1327,1391,2667,2667,1391,1391,1392,1392,1392,1392,1391,1391,1903,1904,1903,1904,1905,1906,1906,2667,2667,1842,1903,2643,2667,2667,1842,1906,1711,1712,1713,2643,2643,2643,2667,2667,1842,1906,1714,1714,1778,1842,1906,2667,2667,1391,1392,1711,1712,1713,1903,1904,1905,1903,2667,2667,2667,1906,1714,1714,1714,1714,1391,1327,1327,2667,2667,1327,1327,2643,1327,1391,1391,1392,1327,1391,1392,2667,1903,1903,1903,1903,1904,1327,1327,1327,1391,2667,1327,1391,1392,1392,1328,1392,1392,1392,2667,
2643,1391,1392,1327,1327,1391,2667,2643,2643,1391,1391,1391,1391,1392,1392,1392,1327,1327,1903,1904,1905,1906,1842,2667,1714,1903,2667,2667,1906,1906,1714,1714,1714,2643,2667,2667,2667,2667,1842,1906,1714,1714,1778,1842,1906,1391,2667,1391,1392,1391,1711,1712,1713,1903,1904,1905,1903,1903,1904,1905,1906,1778,1778,1778,1778,1391,1391,1391,1391,2643,1391,1391,2667,1391,1391,1392,1327,1391,1392,1839,2667,1839,1839,1839,1839,1839,1391,1391,1391,1391,2667,1391,1391,1391,1392,1328,1391,1392,1713,2643,
2643,1392,1391,1392,1327,1327,2667,2667,2667,1391,1391,1391,1391,2643,2643,1391,1391,1392,1327,1903,1904,1905,1906,2667,1778,1714,1903,1904,1905,1906,1778,1778,1778,2667,2667,1842,1842,1906,1906,1714,1778,1778,1842,1906,1391,1327,2667,1391,1392,1391,1711,1712,1713,1903,1904,1905,1903,1903,1904,1905,1906,2643,2643,2643,1842,1842,1391,1391,2643,2643,1327,1327,2667,1327,1327,1391,1391,1392,1903,1903,2667,1903,1903,1903,1903,1903,1903,1903,1903,2643,2667,1391,1391,1391,1392,1392,1712,1713,1714,2667,
2643,2643,1327,1391,1392,1327,1327,1327,2643,2643,2643,2643,2643,2667,2643,2643,2643,1391,1391,1903,1904,1905,1906,2667,1842,1778,1903,1904,1905,1906,1842,1842,1842,2667,1906,1906,1906,1714,1778,1778,1842,1842,1906,1327,1327,1327,2667,1392,1391,1327,1711,1712,1713,1714,1903,1904,1903,1903,1904,1905,1906,2667,2667,2667,2643,1906,1906,1906,2667,2643,1391,1391,2667,1391,1391,1392,1906,1906,1906,1906,2667,1906,1842,1842,1842,1842,1842,1778,1778,2667,2667,1714,1714,1714,1714,1714,1712,1713,1714,2643,
2667,2643,1327,1327,1391,1392,1327,1327,2667,2667,2667,2667,2667,2667,2667,2667,2643,2643,1391,1391,1903,1904,2643,2667,1906,1842,1903,1904,1905,1906,1906,1906,1906,2667,1714,1778,1778,1778,1842,1842,1906,1906,1327,1327,1327,1391,2667,2643,1327,1391,1711,1712,1713,1714,1711,1903,1903,1904,1905,1906,1906,1906,1842,1842,2667,1842,1842,1906,2667,2667,1775,2643,2643,1775,1839,1839,1839,1839,1903,1904,2667,1906,1906,1906,1906,1906,1906,1842,1842,2667,1842,1778,1778,1778,1778,1778,1714,1714,1714,2667,
1327,2643,1327,1327,1327,1391,1392,1392,1327,1327,1327,1327,1327,1391,1391,1391,2667,2643,2643,1392,1392,2643,2667,2667,1906,1906,1842,1842,1778,1778,1778,1778,1778,2667,1778,1842,1842,1842,1906,1906,1327,1327,1327,1327,1391,1392,2667,2667,2643,2643,2643,2643,2643,2643,2643,2643,2643,2643,2643,2643,2643,2643,1906,1906,2667,1906,1906,1778,2643,2667,1839,2667,2667,1839,1903,1903,1903,1903,1903,1903,2643,2643,2643,2643,2643,2643,2643,2643,2643,2643,2643,2643,2643,2643,1842,1842,1778,1778,1778,2643,
1327,2643,1391,1392,1327,1327,1392,1392,1392,1327,1327,1327,1327,1327,1327,1327,1327,2667,2643,1391,1391,2667,2667,1904,1905,1906,1906,1906,1842,1842,1842,1842,2643,2667,1842,1906,1906,1906,1327,1327,1327,1327,1391,1392,1391,886,886,2667,2667,2667,2667,2667,2667,2667,2667,2667,2667,2667,2667,2667,2667,2643,2643,2643,2643,1842,1842,1842,2667,2643,2643,2643,2667,1903,1903,1904,1905,1906,1714,1714,2667,2667,2667,2667,2667,2667,2667,2667,2667,2667,2667,2667,2667,2667,1906,1906,1842,1842,1842,2667,
1327,2643,1392,1391,1327,1327,1391,1392,1392,1392,1392,1392,1392,1327,1327,1327,1327,1327,2643,2643,2643,2643,1327,1327,1903,1904,1905,1906,1906,1906,1906,1906,2667,2667,1906,1327,1327,1327,1327,1327,1327,1391,1392,1391,886,1523,1523,1327,1328,1327,1711,1712,1713,1327,1391,1391,1391,1391,1327,1391,1327,2667,2667,2667,2667,1906,1906,1906,1906,2667,2667,2643,2643,1906,1906,1842,1778,1778,1778,1778,2667,1778,1778,1778,1778,1778,1778,1778,1778,1778,1778,1778,1903,1904,1905,1906,1906,1906,1906,2643,
1327,2643,1392,1391,1327,1391,1392,1391,1391,1391,1391,1391,1391,1391,1391,1391,1391,1327,2667,2667,2667,2667,1327,1327,1327,1327,1327,1327,1327,1327,1327,1327,2667,1327,1327,1327,1327,1327,1391,1392,1391,1327,1391,1392,886,1523,1523,1391,1392,1392,1711,1712,1713,1327,1391,1392,1328,1391,1391,1392,1391,1391,1327,1327,1328,1775,1775,1711,1711,1903,1904,2667,2643,1905,1906,1906,1842,1842,1842,1842,2667,1842,1327,1328,1328,1328,1328,1328,1328,1842,1842,1842,1842,1842,1842,1842,1842,1842,1842,2667,
1391,2643,2643,1327,1391,1392,1391,1392,1392,1392,1392,1392,1392,1392,1392,1392,1392,1391,1391,1391,1391,1391,1391,1391,1327,1327,1327,1327,1327,1327,2643,2643,2667,1392,1391,1327,1391,1392,1392,1391,1327,1392,1391,1327,1327,886,886,886,2667,2643,2643,2643,2643,2643,2643,2643,1328,1327,1391,1392,1392,1328,1391,1327,1327,1328,1714,1775,1711,1711,1712,1713,2643,1904,1905,1906,1906,1906,1327,1327,2667,1327,1327,1327,1327,1327,1327,1327,1327,1328,1328,1906,1906,1906,1906,1906,1906,1906,1906,2643,
1391,2667,2643,2643,1391,1392,1391,1391,1391,1391,1391,1391,1391,1391,1391,1391,1391,1391,1391,1391,1391,1391,1391,1391,1391,1391,1391,1391,1391,1391,2643,2667,1391,1391,1327,1327,1391,1392,1391,1327,1391,1392,1392,1391,1327,1327,1327,1327,2667,2667,2667,2667,2667,2667,2667,2643,1392,1327,1391,1391,1392,1392,1327,1391,1327,1327,1328,1714,1714,1712,1713,1714,2643,1711,1711,1711,1327,1328,1328,1391,2667,1391,1391,1327,1391,1391,1391,1391,1327,1327,1327,1328,1775,1775,1775,1839,1903,1904,1905,2667,
1391,1392,2667,2643,2643,2643,2643,1391,1391,1391,1391,1391,1391,1391,1391,1391,1391,1392,1392,1392,1392,1392,1392,1392,1392,1392,1392,1392,1392,1392,2667,1392,1392,1392,1392,1392,1327,1327,1391,1392,1391,1327,1391,1392,1392,1391,1327,1327,1327,2667,1775,1711,1391,1327,1327,2643,2643,2643,2643,2643,1391,1392,1328,1327,1327,1328,1327,1328,1778,1714,1714,1714,2667,1775,1327,1328,1328,1328,1392,1391,2667,1392,1328,1391,1391,1392,1391,1327,1328,1328,1328,1328,1328,1328,1328,1903,1903,1904,1905,2643,
1391,1392,1391,2667,2667,2667,2643,2643,2643,2643,2643,2643,2643,2643,2643,2643,2643,2643,2643,2643,2643,2643,2643,1391,1391,1391,1391,2643,2643,2643,2643,2643,2643,2643,2643,2643,2643,2643,2643,2643,2643,2643,2643,2643,2643,1391,1392,2643,2643,2667,1839,1775,1775,1327,1391,2667,2667,2667,2667,2643,2643,2643,2643,2643,2643,2643,2643,2643,2643,2643,2643,2643,2643,2643,2643,2643,2643,2643,2643,2643,2643,2643,2643,2643,2643,2643,2643,2643,2643,2643,2643,2643,2643,2643,2643,2643,2643,2643,2643,2643,
1391,1392,1391,1327,1391,1392,2667,2667,2667,2667,2667,2667,2667,2667,2667,2667,2667,2667,2667,2667,2667,2667,2643,2643,2643,2643,2643,2667,2667,2667,2667,2667,2667,2667,2667,2667,2667,2667,2667,2667,2667,2667,2667,2667,2643,2643,2643,2667,2667,2667,1903,1839,1839,1327,1327,2667,2667,2667,2667,2667,2667,2667,2667,2667,2667,2667,2667,2667,2667,2667,2667,2667,2667,2667,2667,2667,2667,2667,2667,2667,2667,2667,2667,2667,2667,2667,2667,2667,2667,2667,2667,2667,2667,2667,2667,2667,2667,2667,2667,2667
</data>
 </layer>
 <objectgroup id="2" name="Calque d'Objets 1">
  <object id="1" x="407.015" y="334.837">
   <properties>
    <property name="obj_type" value="spawnpoint_joueur"/>
   </properties>
   <point/>
  </object>
  <object id="7" x="368.923" y="287.385">
   <properties>
    <property name="contenu" value="epee"/>
    <property name="obj_type" value="vase"/>
   </properties>
   <point/>
  </object>
  <object id="39" x="812.031" y="50.1252">
   <properties>
    <property name="contenu" value="potion_vie"/>
    <property name="obj_type" value="vase"/>
   </properties>
   <point/>
  </object>
  <object id="12" x="604.845" y="198.496">
   <properties>
    <property name="nom" value="ennemi1"/>
    <property name="obj_type" value="ennemi1"/>
   </properties>
   <point/>
  </object>
  <object id="20" x="719.131" y="465.831">
   <properties>
    <property name="contenu" value="cle"/>
    <property name="obj_type" value="vase"/>
   </properties>
   <point/>
  </object>
  <object id="22" x="609.524" y="345.53">
   <properties>
    <property name="nom" value="ennemi1"/>
    <property name="obj_type" value="ennemi1"/>
   </properties>
   <point/>
  </object>
  <object id="23" x="1018.55" y="286.716">
   <properties>
    <property name="nom" value="araignee"/>
    <property name="obj_type" value="araignee"/>
   </properties>
   <point/>
  </object>
  <object id="24" x="276.915" y="357.859">
   <properties>
    <property name="obj_type" value="coffre"/>
   </properties>
   <point/>
  </object>
  <object id="27" x="241.938" y="415.706">
   <properties>
    <property name="obj_type" value="porte_cle"/>
   </properties>
   <point/>
  </object>
  <object id="37" x="1390.81" y="509.273">
   <properties>
    <property name="obj_type" value="porte_cle"/>
   </properties>
   <point/>
  </object>
  <object id="38" x="1120.13" y="110.276">
   <properties>
    <property name="obj_type" value="porte"/>
   </properties>
   <point/>
  </object>
  <object id="28" x="687.719" y="320.134">
   <properties>
    <property name="nom" value="porte_1"/>
    <property name="obj_type" value="porte_plaque"/>
   </properties>
   <point/>
  </object>
  <object id="29" x="580.117" y="746.533">
   <properties>
    <property name="nom" value="porte_1"/>
    <property name="obj_type" value="plaque"/>
   </properties>
   <point/>
  </object>
  <object id="30" x="165.748" y="564.077">
   <properties>
    <property name="nom" value="necrom"/>
    <property name="obj_type" value="necromancien"/>
   </properties>
   <point/>
  </object>
  <object id="34" x="1203.68" y="730.493" width="30" height="30">
   <properties>
    <property name="map" value="assets/map2.tmx"/>
    <property name="obj_type" value="changement_map"/>
   </properties>
  </object>
  <object id="35" x="75.5221" y="128.989">
   <properties>
    <property name="nom" value="bat"/>
    <property name="obj_type" value="bat"/>
   </properties>
   <point/>
  </object>
  <object id="40" x="630.242" y="312.114">
   <properties>
    <property name="nom" value="porte_1"/>
    <property name="obj_type" value="plaque"/>
   </properties>
   <point/>
  </object>
 </objectgroup>
</map>
