<?xml version="1.0" encoding="UTF-8"?>
<map version="1.10" tiledversion="1.12.1" orientation="orthogonal" renderorder="right-down" width="100" height="50" tilewidth="16" tileheight="16" infinite="0" nextlayerid="3" nextobjectid="33">
 <tileset firstgid="1" source="mur.tsx"/>
 <tileset firstgid="289" source="Plateforme.tsx"/>
 <layer id="1" name="Calque de Tuiles 1" width="100" height="50">
  <data encoding="csv">
25,26,49,25,25,49,49,49,49,49,49,25,25,25,26,49,49,49,49,49,49,25,25,25,25,49,49,49,25,25,25,25,25,49,49,49,49,49,49,49,49,49,25,26,25,26,25,25,49,50,50,49,50,49,50,49,50,83,83,83,107,107,107,107,107,83,83,83,83,83,83,83,83,83,83,83,83,83,83,83,83,83,83,83,83,83,83,83,83,83,83,83,83,83,83,83,83,253,254,255,
25,26,276,49,49,49,50,276,276,276,252,49,49,25,25,25,25,49,49,49,49,49,49,49,49,49,50,276,49,49,49,49,49,49,50,252,276,276,276,277,278,276,49,50,49,50,49,49,50,254,276,276,252,252,252,83,83,107,107,107,107,253,254,255,223,107,107,107,107,107,107,107,107,107,107,107,107,107,107,107,107,107,107,107,107,107,107,107,107,107,107,107,107,107,107,107,83,83,253,254,
25,26,276,252,252,252,252,252,253,254,252,253,254,49,49,49,49,49,50,276,277,278,276,276,276,276,276,276,252,276,276,277,278,278,276,252,252,276,248,248,253,254,252,276,252,252,276,252,253,254,276,252,252,248,83,107,107,107,221,245,245,253,254,255,221,221,222,223,253,253,254,255,253,253,254,255,249,249,249,276,277,278,279,248,249,276,276,252,276,276,276,277,278,279,255,248,107,83,253,254,
25,26,252,276,276,276,252,248,248,248,252,253,254,252,276,276,276,277,276,277,278,254,254,277,278,254,254,252,276,276,277,276,277,278,254,276,276,248,248,248,248,248,276,252,276,276,244,244,244,253,254,252,252,83,107,107,254,254,254,255,202,277,278,279,202,203,204,205,277,277,278,279,277,253,253,253,254,255,276,277,278,279,252,248,249,249,249,276,276,277,278,279,252,252,252,252,252,83,253,254,
25,26,276,276,277,252,248,248,254,278,248,248,254,276,25,25,254,277,276,277,278,278,25,26,254,248,248,248,248,278,254,25,25,25,26,254,252,276,277,278,252,253,276,276,276,276,277,276,252,253,254,276,248,107,107,269,278,278,278,279,226,226,226,226,202,202,202,254,255,202,203,204,205,277,277,253,254,255,254,255,279,255,255,254,255,248,249,249,277,278,279,248,249,249,276,276,276,83,83,254,
25,26,276,276,252,253,254,254,278,253,254,248,278,276,49,49,50,277,278,276,276,277,25,26,252,248,248,276,25,25,25,49,49,49,50,278,254,276,277,278,252,252,276,276,277,25,26,278,252,253,254,248,83,107,276,252,278,279,250,250,250,253,253,254,255,226,254,253,254,255,205,205,205,229,278,277,278,279,278,279,279,279,279,255,252,276,252,252,252,252,253,254,255,248,253,253,254,107,83,254,
25,26,276,252,253,254,254,278,252,253,248,248,253,276,49,27,50,276,277,278,278,278,25,26,276,276,276,276,49,49,49,49,50,276,277,278,278,276,25,26,254,244,244,276,277,25,26,278,252,253,254,248,107,107,248,249,278,279,274,274,274,83,253,253,83,255,253,83,83,83,229,229,229,253,205,277,277,277,278,279,255,255,255,255,252,252,276,276,276,252,252,252,253,254,277,253,253,254,83,254,
25,26,254,253,254,254,278,253,254,254,278,253,252,276,277,27,50,278,278,278,278,278,25,26,276,277,278,278,49,50,278,278,254,276,276,277,278,25,26,26,278,244,276,276,25,26,26,278,252,253,254,248,107,279,248,249,278,279,252,252,245,107,277,253,107,253,253,107,107,83,83,83,83,202,202,202,203,204,205,245,245,245,245,245,246,247,248,249,250,251,252,253,254,255,255,277,277,278,83,254,
25,26,252,252,252,252,252,252,252,252,252,253,276,276,277,27,27,277,278,252,252,252,25,25,26,278,254,252,49,50,277,278,278,276,276,276,277,25,26,50,278,244,276,276,25,26,50,278,276,277,278,83,107,252,252,252,278,279,245,245,269,269,226,277,277,277,277,278,279,107,107,107,107,83,83,83,83,83,202,202,202,203,204,205,246,247,248,249,250,251,252,253,254,255,254,255,248,249,83,255,
49,50,276,276,276,276,276,276,276,276,252,253,276,277,278,49,27,277,278,276,252,276,49,25,26,253,254,276,49,50,276,277,278,276,276,277,278,25,25,26,278,278,276,277,25,26,26,278,254,254,252,107,107,276,276,252,278,279,269,254,254,255,254,254,254,252,252,252,253,255,83,83,83,107,107,107,107,83,83,253,253,254,255,203,204,205,249,250,251,252,253,254,255,255,255,255,248,249,83,255,
29,276,276,277,278,25,25,25,26,278,252,253,276,277,278,49,50,26,26,252,276,276,277,25,26,253,254,276,49,50,252,276,277,278,278,254,276,49,25,25,26,278,276,277,25,25,25,26,254,278,276,107,277,278,279,276,278,279,254,278,278,254,278,252,253,276,276,276,277,255,107,107,107,274,274,274,250,107,107,3,4,4,26,4,4,4,204,205,251,252,253,254,255,279,252,252,252,248,83,252,
25,25,25,25,25,49,49,25,25,25,26,253,276,277,278,49,50,50,50,26,277,278,25,26,26,254,254,276,49,50,276,276,276,277,278,278,278,254,49,25,25,26,278,276,49,49,25,26,253,254,83,107,278,279,279,252,278,254,278,278,279,278,278,276,277,277,243,243,243,243,243,243,279,274,250,226,274,274,274,4,28,28,50,28,28,28,4,204,205,276,277,278,279,254,255,276,276,248,83,252,
26,26,49,49,49,49,50,49,49,25,25,26,276,277,278,276,277,49,50,50,254,254,25,26,50,278,278,276,277,278,254,277,278,276,276,277,278,278,278,49,25,27,278,276,277,25,27,26,253,254,107,107,252,252,252,253,254,278,278,254,254,252,253,279,243,243,243,243,83,83,279,243,243,243,243,250,202,203,204,28,1183,1246,1247,1246,1247,4,50,4,204,205,248,249,252,252,253,254,255,248,83,83,
50,50,252,253,254,253,254,276,276,49,25,25,25,26,278,276,277,49,49,50,278,278,25,26,278,254,252,276,277,278,278,25,26,278,276,277,278,278,254,254,25,27,254,276,277,49,27,26,253,254,107,276,253,254,255,255,254,278,254,254,278,252,253,277,243,278,279,254,107,107,83,279,243,243,243,243,243,243,1427,1183,1183,1310,1311,1310,1311,28,50,4,4,204,205,248,249,253,254,255,254,248,107,83,
49,50,252,253,254,253,254,253,254,252,49,49,25,25,25,25,26,49,50,278,278,25,26,26,278,252,276,276,276,277,278,49,50,26,254,276,277,278,278,254,25,27,254,276,277,278,25,26,253,254,107,276,277,278,279,279,278,254,278,278,278,83,83,277,243,83,83,83,83,83,107,83,243,254,255,253,243,1427,1427,1183,1183,1183,1310,1311,1182,1183,1183,28,4,4,205,248,248,277,278,279,252,248,249,83,
50,252,252,252,252,253,254,254,253,254,252,252,49,49,49,49,50,276,276,277,278,25,26,50,254,276,276,277,278,254,276,49,50,50,278,278,276,277,278,278,25,26,278,252,253,254,49,50,253,254,107,277,278,279,248,249,278,278,278,83,83,107,107,243,243,107,107,107,107,107,107,107,83,83,4,252,1427,1183,1183,1183,1183,1167,1167,1167,1167,1182,1183,1183,28,4,4,253,248,277,278,279,276,277,83,83,
50,25,25,25,25,25,25,26,254,253,254,252,276,252,276,277,252,276,276,277,278,25,26,278,252,276,277,278,252,252,276,276,49,50,278,278,254,276,276,276,25,26,276,252,253,254,25,26,253,254,107,278,279,276,248,249,278,254,83,83,107,252,253,243,243,243,243,243,243,243,243,107,107,107,28,253,1427,1183,1183,1183,1167,1167,1167,1167,1167,1167,1167,1182,1183,28,4,254,255,277,278,279,276,277,83,107,
25,49,49,49,49,49,25,25,26,252,253,252,252,276,277,278,276,276,276,277,278,25,25,26,254,254,254,252,276,276,276,252,49,50,277,278,278,254,254,252,49,50,277,252,253,254,49,50,253,254,107,255,255,255,277,248,249,278,83,107,252,253,253,243,243,243,243,243,254,255,255,279,246,277,28,4,4,1183,1183,1167,1167,1167,1621,1621,1621,1622,1167,1167,1182,1183,4,4,254,254,255,276,277,278,83,255,
49,49,50,276,252,253,49,25,25,26,252,276,276,276,277,278,276,277,278,276,277,49,49,50,278,278,278,276,276,252,252,25,49,50,278,276,277,278,278,254,254,277,278,252,253,254,278,252,253,254,107,279,279,255,255,255,255,277,83,254,252,243,243,243,274,83,83,83,83,83,83,269,3,4,5,28,28,1183,1183,1167,1167,1621,1622,2070,2071,1621,1622,1167,1167,1246,28,4,278,254,255,277,278,279,83,252,
26,278,277,278,252,253,254,49,25,26,276,276,276,277,278,254,276,277,278,254,254,254,254,252,253,254,254,25,25,25,25,49,49,50,252,253,244,277,278,278,278,254,254,254,254,254,253,252,253,254,83,277,278,279,279,279,279,83,107,252,243,243,205,83,83,83,107,107,107,107,107,83,27,28,29,245,25,26,1183,1167,1167,1685,1686,2134,2135,2071,1621,1622,1167,1246,1247,4,4,255,255,202,202,203,83,205,
50,278,277,278,252,252,252,253,25,26,276,276,25,25,25,25,26,277,278,278,254,254,254,254,254,254,25,49,49,49,49,49,50,254,254,254,244,244,276,277,278,278,278,278,278,278,254,252,253,254,107,252,252,252,252,252,83,83,254,252,243,277,254,83,107,107,254,255,255,279,107,107,51,253,254,255,49,25,26,1167,1167,1685,1686,2134,2070,2071,1622,1622,1167,1310,1311,28,4,255,279,226,202,203,83,205,
26,278,277,252,252,276,276,252,25,25,26,25,26,49,49,25,26,276,277,278,278,278,278,278,278,278,49,49,50,276,277,278,254,254,254,254,254,254,254,276,277,278,278,252,248,248,248,253,254,254,107,276,276,276,276,252,107,107,278,243,243,254,278,83,253,254,254,255,254,254,255,253,254,255,255,255,270,49,25,26,1167,1167,1685,1686,2134,2135,1622,1686,1167,1167,1246,1247,4,279,250,250,202,203,83,205,
50,277,252,276,276,276,277,252,49,25,25,49,50,278,254,25,25,26,254,254,254,254,278,278,253,254,49,50,276,276,277,278,278,278,278,278,278,278,278,252,276,277,278,248,248,248,248,248,254,278,107,277,278,279,276,276,83,252,253,243,253,278,83,83,277,278,278,279,255,255,255,243,243,243,243,243,255,255,49,50,1183,1167,1685,1686,1686,1686,1686,1167,1167,1167,1310,1311,4,274,274,202,203,204,83,205,
25,25,25,25,25,26,254,276,276,49,49,50,276,277,278,49,27,27,254,278,278,278,248,253,254,252,253,254,276,277,252,252,252,252,276,277,278,25,26,276,276,276,277,278,248,248,248,248,252,253,254,278,279,279,277,202,83,276,243,243,253,255,107,107,254,255,278,243,243,243,279,255,255,279,278,243,279,279,25,26,1183,1167,1167,1167,1167,1167,1167,1167,1167,1246,1247,4,4,252,276,226,227,228,83,229,
49,49,49,49,25,25,26,276,277,278,276,276,277,276,277,278,27,27,278,254,252,253,248,254,252,253,254,25,26,252,276,276,276,276,276,277,278,25,25,25,26,276,277,278,248,248,248,248,276,277,278,255,255,255,202,203,83,277,243,243,277,83,279,254,255,255,243,243,279,279,83,279,279,277,278,279,255,254,52,53,1183,1183,1183,1183,1167,1167,1167,1246,1247,1310,1311,4,28,276,276,250,251,252,83,253,
26,276,277,278,49,25,26,276,277,278,254,277,278,276,277,252,25,25,26,252,253,254,254,248,248,254,254,49,50,26,26,277,278,253,276,277,278,49,49,25,26,252,253,254,254,252,248,248,276,277,278,279,279,279,255,255,83,278,243,243,279,83,255,278,279,243,243,279,279,107,107,73,74,75,76,77,78,79,76,77,82,1183,1246,1247,1246,1247,1182,1183,1311,4,4,4,277,276,277,274,275,83,83,277,
26,276,277,252,276,25,26,276,277,278,278,254,278,254,254,254,49,25,25,25,25,25,26,254,254,278,278,49,50,50,50,26,252,252,276,277,278,278,278,25,26,252,252,252,252,253,254,276,276,277,278,277,278,279,279,279,83,255,243,278,279,83,252,252,253,243,243,223,255,278,107,97,98,99,100,101,102,103,106,106,4,4,1310,1311,1247,1311,1246,4,4,4,28,28,277,277,278,248,249,83,107,252,
26,277,252,276,276,25,25,26,276,277,278,278,254,254,254,254,253,49,49,49,49,25,25,25,26,278,252,276,276,49,50,50,276,276,252,253,276,277,25,26,26,276,276,276,252,252,253,276,277,278,107,245,246,247,277,278,107,279,243,278,278,83,252,253,253,253,243,247,223,223,252,252,83,83,83,255,279,279,250,250,28,28,4,1310,1311,4,4,4,28,28,275,276,277,277,278,248,249,83,253,252,
26,278,276,276,252,49,25,27,27,27,276,25,25,26,278,278,254,254,254,254,278,49,49,49,50,276,276,276,277,278,49,27,254,254,254,254,276,25,27,27,50,276,252,252,252,25,25,26,277,278,107,245,245,245,83,83,277,278,243,243,279,83,276,277,277,277,243,271,247,247,254,254,107,107,107,279,83,274,274,274,274,28,28,4,4,4,28,28,274,275,276,277,277,278,279,248,249,83,252,253,
26,278,252,252,253,254,49,27,27,27,277,49,25,25,25,26,278,278,278,278,278,254,254,254,254,254,276,277,278,254,49,27,278,278,278,278,25,27,27,50,278,252,276,276,252,49,49,50,277,278,107,269,269,269,83,107,202,243,243,243,277,83,83,279,276,277,277,243,254,255,278,278,254,254,255,255,107,83,83,252,276,276,28,28,28,28,249,279,252,252,276,277,278,279,255,248,249,83,252,253,
26,253,254,252,253,254,276,25,26,26,277,278,49,49,25,25,26,254,276,277,278,278,278,278,278,278,276,277,278,25,49,50,276,276,276,25,27,26,50,252,252,252,253,254,25,27,50,276,277,278,107,278,279,83,107,226,202,202,243,243,277,107,83,278,279,279,255,243,251,252,253,254,255,255,255,254,255,107,83,83,83,277,278,279,252,276,252,253,254,276,252,252,252,252,252,252,252,83,252,253,
26,253,254,252,252,253,254,25,26,50,277,276,277,276,49,27,27,278,254,254,254,254,254,254,252,253,254,25,25,49,49,50,254,254,25,27,27,50,254,276,276,252,253,254,49,27,50,276,277,278,107,278,279,83,274,250,226,243,243,243,202,202,107,277,253,253,253,243,243,249,250,251,252,253,254,255,254,254,107,107,107,83,252,252,252,252,252,252,253,254,255,276,276,276,276,276,276,83,252,252,
50,252,248,254,252,253,254,25,26,277,278,276,277,278,278,25,27,26,278,278,252,252,253,254,254,254,254,49,49,49,50,278,278,25,26,26,50,278,278,276,277,252,253,254,27,27,252,276,277,278,107,252,253,83,255,274,250,243,243,226,226,226,83,202,277,277,253,243,243,243,255,248,249,250,251,252,253,254,255,254,254,107,255,276,276,276,276,276,253,253,254,255,279,252,252,276,276,83,276,276,
26,252,248,254,252,253,252,25,25,26,276,277,276,277,278,49,25,25,25,25,25,26,252,253,254,278,278,278,254,252,252,276,277,25,26,50,252,253,25,26,252,252,253,254,27,27,253,276,277,278,107,253,254,83,249,279,274,243,243,243,250,250,83,83,227,228,253,243,255,243,243,243,243,247,248,249,250,251,252,253,254,255,254,255,252,252,253,254,277,253,254,255,276,276,276,276,277,83,255,252,
26,252,248,248,252,252,276,49,25,25,26,276,277,278,276,277,49,49,49,49,49,50,276,252,253,254,254,278,252,276,276,276,277,25,26,254,254,254,49,50,276,252,252,253,25,26,26,276,277,278,107,253,254,83,253,254,255,243,243,243,274,274,107,83,83,253,254,255,255,279,278,279,243,254,243,246,247,248,249,250,251,252,253,83,83,276,252,253,277,253,254,255,252,248,248,249,254,83,255,254,
26,252,248,248,248,248,276,276,49,25,27,254,254,248,278,278,278,278,254,254,252,253,254,252,252,253,254,252,276,276,277,276,277,25,26,278,278,278,25,26,276,252,252,252,49,50,50,276,277,278,107,253,254,83,83,254,255,243,243,243,278,254,274,107,83,253,253,253,254,255,279,252,253,243,243,243,243,245,245,246,247,248,249,107,107,252,253,277,277,253,253,254,255,248,249,253,254,83,255,254,
26,252,252,252,248,276,277,278,276,27,27,278,278,248,248,254,248,248,254,254,254,254,278,276,252,253,252,276,25,26,277,278,278,49,50,254,254,278,49,27,252,276,276,276,276,25,26,26,277,278,107,253,254,107,83,253,254,255,243,243,243,278,279,276,107,277,83,253,254,255,252,276,277,277,253,243,253,243,255,245,245,245,246,247,248,83,250,277,278,277,253,254,255,249,253,254,83,83,279,255,
25,26,276,276,276,276,277,278,25,26,26,277,278,278,248,248,248,278,278,278,278,278,278,278,252,253,25,25,49,50,277,276,277,278,278,278,278,25,49,27,276,252,252,252,253,25,25,26,277,278,107,254,255,252,107,253,253,253,243,243,243,279,276,254,255,255,83,83,83,279,276,276,277,248,277,277,253,243,243,243,255,269,245,245,245,83,247,277,278,279,253,254,255,254,255,255,83,107,253,254,
25,26,276,277,278,254,25,26,26,26,50,278,278,278,278,278,278,25,26,26,26,26,26,252,253,254,49,49,49,50,277,278,278,278,278,278,278,49,49,27,276,276,276,252,253,49,25,26,278,254,83,83,255,255,252,277,277,253,253,243,243,255,205,254,255,279,107,107,107,83,83,83,83,248,249,254,277,277,253,243,243,243,253,254,255,83,245,277,278,279,253,253,254,255,83,83,83,254,255,252,
26,26,277,278,254,252,27,27,50,50,278,254,276,276,276,276,276,25,26,50,50,50,50,26,253,254,49,25,26,278,278,278,278,278,278,254,254,25,26,26,277,276,277,252,252,253,27,26,278,278,107,107,83,83,255,255,226,277,277,253,243,243,243,253,254,255,205,255,248,107,107,107,107,255,83,83,83,279,277,277,277,253,243,243,279,83,269,277,278,279,277,83,83,83,83,107,107,249,250,251,
26,50,277,278,252,276,27,27,276,277,278,278,252,252,252,25,26,26,26,252,253,25,25,26,26,254,49,49,25,26,252,253,254,254,254,278,278,49,25,25,26,276,277,276,252,253,27,26,277,278,252,107,107,107,83,279,250,250,250,277,277,243,243,253,253,253,253,253,253,253,253,254,255,279,107,107,83,83,83,83,253,277,277,243,279,107,249,277,278,279,83,83,107,107,107,245,245,246,247,248,
26,276,277,278,276,276,27,27,252,276,277,278,254,25,26,26,26,50,50,252,252,49,49,27,27,254,276,49,25,26,26,254,254,278,278,252,276,276,49,25,26,276,277,278,252,253,25,26,277,278,254,252,252,107,107,83,274,274,274,250,250,250,243,243,277,277,277,277,277,277,253,253,253,253,254,255,107,107,107,83,83,277,243,243,279,279,279,278,254,83,83,107,279,279,269,269,269,270,271,272,
26,276,277,278,276,277,27,27,276,276,277,278,278,25,26,50,50,252,252,252,252,252,253,27,27,278,276,277,49,25,27,27,278,252,252,252,252,252,25,26,26,26,254,252,252,252,25,26,277,278,278,276,276,248,107,107,83,254,255,274,274,274,274,243,243,243,243,250,250,226,277,277,277,277,278,279,202,202,202,107,107,202,202,202,202,202,203,204,83,83,107,279,254,254,254,254,254,202,202,202,
26,276,277,278,276,277,25,26,276,277,276,277,25,26,26,276,276,276,276,276,276,252,25,26,26,252,276,277,278,49,27,27,276,276,276,252,253,254,49,50,50,50,254,276,276,276,25,26,276,277,278,252,252,253,248,107,107,83,83,248,249,278,279,255,274,274,243,243,243,243,243,250,250,250,250,226,226,226,226,226,226,226,226,226,226,83,83,83,83,107,202,202,202,202,202,202,202,226,226,226,
26,276,277,278,276,277,25,26,252,252,276,276,49,50,50,252,252,252,252,252,252,253,25,26,50,252,276,276,277,278,25,26,254,254,254,254,25,25,49,49,50,278,278,254,244,277,49,25,26,254,254,254,254,254,254,253,107,107,107,83,248,249,278,279,255,255,255,255,255,274,243,243,243,243,274,250,250,250,250,250,250,83,83,83,83,83,107,107,107,226,226,226,226,226,226,226,226,250,250,250,
25,26,276,277,276,277,49,50,276,276,276,277,252,252,276,276,276,276,276,276,252,252,25,26,26,276,276,277,276,277,49,50,278,278,278,278,49,49,49,50,278,254,252,252,244,276,49,25,26,26,26,278,278,278,255,277,278,279,107,107,83,83,253,278,279,279,279,279,255,255,255,279,279,279,279,274,83,83,83,83,83,83,107,107,107,107,250,250,250,250,250,250,250,250,250,250,250,274,274,274,
25,26,276,277,278,278,252,276,276,277,278,252,276,276,276,277,278,253,252,252,252,252,49,50,50,26,277,278,278,278,49,50,278,278,278,278,278,254,254,254,254,252,276,276,276,276,252,49,50,50,50,26,277,278,252,252,248,248,249,107,107,107,83,83,253,254,255,278,279,279,83,83,83,83,83,83,83,107,107,107,107,107,279,254,255,279,274,274,274,274,274,274,274,274,274,274,274,275,276,277,
25,26,277,25,25,25,26,276,277,278,254,276,276,277,278,254,254,252,276,276,25,25,25,49,50,50,252,276,277,278,278,278,278,278,278,278,278,278,278,252,252,276,276,277,278,252,276,276,276,49,50,50,278,254,254,276,276,248,248,249,254,107,107,107,83,83,83,83,83,83,83,107,107,107,107,107,107,255,255,255,276,276,252,253,254,255,255,255,248,248,249,276,276,252,253,254,255,279,279,279,
25,25,25,49,49,25,25,25,26,254,25,25,25,25,25,25,25,25,25,25,49,49,49,25,25,25,26,276,277,278,276,277,278,278,278,254,25,25,25,26,276,276,277,278,254,254,254,254,254,254,254,278,278,278,278,255,255,255,255,25,25,25,26,107,107,107,107,107,107,107,107,255,255,255,255,279,279,248,248,248,248,248,249,255,255,255,279,279,248,249,255,255,255,255,255,248,248,249,255,255,
49,49,49,49,50,49,49,25,25,25,49,49,49,49,49,49,49,49,49,49,49,50,25,49,49,25,25,25,25,25,25,25,25,25,25,25,49,49,49,25,25,25,25,25,25,25,25,25,25,25,25,25,25,25,25,25,25,25,26,49,49,49,50,255,255,276,252,252,253,254,255,279,279,279,279,279,279,279,279,279,279,248,248,248,248,248,249,248,248,249,279,279,279,279,248,248,249,279,279,255
</data>
 </layer>
 <objectgroup id="2" name="Calque d'Objets 1">
  <object id="1" x="29.4065" y="326.817">
   <properties>
    <property name="obj_type" value="spawnpoint_joueur"/>
   </properties>
   <point/>
  </object>
  <object id="2" x="197.16" y="186.467">
   <properties>
    <property name="obj_type" value="coffre"/>
   </properties>
   <point/>
  </object>
  <object id="3" x="1367.42" y="333.5">
   <properties>
    <property name="nom" value="glichon"/>
    <property name="obj_type" value="sanglichon"/>
   </properties>
   <point/>
  </object>
  <object id="4" x="28.0702" y="20.7185">
   <properties>
    <property name="contenu" value="armure"/>
    <property name="obj_type" value="vase"/>
   </properties>
   <point/>
  </object>
  <object id="5" x="14.0351" y="580.785">
   <properties>
    <property name="contenu" value="rune_degat"/>
    <property name="obj_type" value="vase"/>
   </properties>
   <point/>
  </object>
  <object id="14" x="475.856" y="285.38">
   <properties>
    <property name="contenu" value="cle"/>
    <property name="obj_type" value="vase"/>
   </properties>
   <point/>
  </object>
  <object id="11" x="454.47" y="467.836">
   <properties>
    <property name="contenu" value="potion_vie"/>
    <property name="obj_type" value="vase"/>
   </properties>
   <point/>
  </object>
  <object id="18" x="577.444" y="691.061">
   <properties>
    <property name="contenu" value="potion_vie"/>
    <property name="obj_type" value="vase"/>
   </properties>
   <point/>
  </object>
  <object id="30" x="1198.33" y="390.309">
   <properties>
    <property name="contenu" value="cailloux"/>
    <property name="obj_type" value="vase"/>
   </properties>
   <point/>
  </object>
  <object id="31" x="1193.65" y="172.431">
   <properties>
    <property name="contenu" value="potion_vie"/>
    <property name="obj_type" value="vase"/>
   </properties>
   <point/>
  </object>
  <object id="6" x="787.97" y="23.3918">
   <properties>
    <property name="contenu" value="rune_vie"/>
    <property name="obj_type" value="vase"/>
   </properties>
   <point/>
  </object>
  <object id="7" x="650.961" y="330.159">
   <properties>
    <property name="nom" value="araignee19"/>
    <property name="obj_type" value="araignee"/>
   </properties>
   <point/>
  </object>
  <object id="12" x="245.948" y="285.38">
   <properties>
    <property name="nom" value="slime12"/>
    <property name="obj_type" value="slime"/>
   </properties>
   <point/>
  </object>
  <object id="15" x="314.119" y="504.595">
   <properties>
    <property name="nom" value="slime"/>
    <property name="obj_type" value="slime"/>
   </properties>
   <point/>
  </object>
  <object id="16" x="213.2" y="612.865">
   <properties>
    <property name="nom" value="grand_slime"/>
    <property name="obj_type" value="grand_slime"/>
   </properties>
   <point/>
  </object>
  <object id="17" x="298.747" y="705.764">
   <properties>
    <property name="nom" value="bat4"/>
    <property name="obj_type" value="bat"/>
   </properties>
   <point/>
  </object>
  <object id="25" x="909.607" y="193.15">
   <properties>
    <property name="nom" value="bat"/>
    <property name="obj_type" value="bat"/>
   </properties>
   <point/>
  </object>
  <object id="26" x="923.642" y="523.977">
   <properties>
    <property name="nom" value="bat3"/>
    <property name="obj_type" value="bat"/>
   </properties>
   <point/>
  </object>
  <object id="27" x="1425.56" y="515.288">
   <properties>
    <property name="nom" value="bat"/>
    <property name="obj_type" value="bat"/>
   </properties>
   <point/>
  </object>
  <object id="28" x="1425.56" y="515.288">
   <properties>
    <property name="nom" value="bat1"/>
    <property name="obj_type" value="bat"/>
   </properties>
   <point/>
  </object>
  <object id="29" x="1402.17" y="84.2105">
   <properties>
    <property name="nom" value="grand_slime"/>
    <property name="obj_type" value="grand_slime"/>
   </properties>
   <point/>
  </object>
  <object id="9" x="501.921" y="150.376">
   <properties>
    <property name="nom" value="araignee23"/>
    <property name="obj_type" value="araignee"/>
   </properties>
   <point/>
  </object>
  <object id="10" x="666.332" y="725.815">
   <properties>
    <property name="nom" value="araignee34"/>
    <property name="obj_type" value="araignee"/>
   </properties>
   <point/>
  </object>
  <object id="19" x="848.789" y="735.171">
   <properties>
    <property name="nom" value="araignee1"/>
    <property name="obj_type" value="araignee"/>
   </properties>
   <point/>
  </object>
  <object id="21" x="1080.03" y="683.041">
   <properties>
    <property name="nom" value="araignee3"/>
    <property name="obj_type" value="araignee"/>
   </properties>
   <point/>
  </object>
  <object id="24" x="1081.37" y="498.58">
   <properties>
    <property name="nom" value="necrom"/>
    <property name="obj_type" value="necromancien"/>
   </properties>
   <point/>
  </object>
  <object id="22" x="1121.47" y="175.104">
   <properties>
    <property name="nom" value="porte3"/>
    <property name="obj_type" value="porte_plaque"/>
   </properties>
   <point/>
  </object>
  <object id="23" x="1158.23" y="355.556">
   <properties>
    <property name="nom" value="porte3"/>
    <property name="obj_type" value="plaque"/>
   </properties>
   <point/>
  </object>
  <object id="20" x="908.939" y="101.587">
   <properties>
    <property name="nom" value="araignee13"/>
    <property name="obj_type" value="araignee"/>
   </properties>
   <point/>
  </object>
  <object id="13" x="255.305" y="48.1203">
   <properties>
    <property name="obj_type" value="porte_cle"/>
   </properties>
   <point/>
  </object>
 </objectgroup>
</map>
