<?xml version="1.0" encoding="UTF-8"?>
<map version="1.10" tiledversion="1.12.1" orientation="orthogonal" renderorder="right-down" width="50" height="50" tilewidth="16" tileheight="16" infinite="0" nextlayerid="4" nextobjectid="15">
 <tileset firstgid="1" source="Plateforme.tsx"/>
 <tileset firstgid="2561" source="mur.tsx"/>
 <layer id="1" name="Calque de Tuiles 1" width="50" height="50">
  <data encoding="csv">
2667,2667,2667,2667,2667,2667,2667,2667,2667,2667,2667,2667,2667,2667,2667,2667,2667,2667,2667,2667,2667,2667,2667,2667,2667,2667,2667,2667,2667,2667,2667,2667,2667,2667,2667,2667,2667,2667,2667,2667,2667,2667,2667,2667,2667,2667,2667,2667,2667,2667,
2667,1723,1724,1725,1726,1787,1723,1723,1851,1851,1787,1723,1787,1787,1851,1851,1851,1915,1915,1915,1915,1915,1915,1915,1723,1723,1787,1787,1851,1851,1723,1723,1787,1787,1787,1787,1787,1787,1787,1723,1723,1723,1787,1787,1723,1787,1787,1787,1723,2667,
2667,1723,1723,1724,1725,1726,1723,1787,1915,1915,1723,1787,1851,1851,1915,1915,1915,1915,1916,1917,1918,1723,1723,1723,1787,1787,1851,1851,1915,1723,1787,1787,1851,1851,1851,1851,1851,1723,1723,1787,1787,1787,1723,1723,1787,1851,1851,1851,1723,2667,
2667,1787,1723,1723,1724,1725,1787,1851,1915,1723,1787,1851,1915,1915,1915,1916,1917,1918,1787,1787,1787,1787,1723,1787,1851,1851,1915,1915,1723,1787,1851,1851,1915,1915,1915,1723,1723,1787,1787,1851,1851,1723,1787,1787,1851,1915,1723,1724,1725,2667,
2667,1851,1787,1787,1723,1723,1851,1915,1723,1787,1851,1915,1915,1916,1917,1918,1723,1723,1723,1723,1724,1723,1787,1851,1915,1915,1915,1916,1787,1851,1915,1915,1915,1916,1723,1787,1723,1723,1723,1723,1723,1723,1723,1724,1725,1726,1726,1726,1726,2667,
2667,1915,1723,1723,1787,1723,1723,1723,1787,1851,1915,1915,1916,1917,1918,1723,1723,1724,1725,1726,1723,1787,1851,1915,1915,1916,1917,1918,1851,1915,1915,1916,1917,1723,1787,1851,1787,1787,1787,1787,1787,1787,1787,1723,1723,1724,1725,1726,1790,2667,
2667,1723,1787,1723,1723,1723,1723,1787,1851,1915,1916,1917,1918,1787,1787,1787,1723,1723,1723,1724,1725,1851,1915,1915,1916,1917,1918,1790,1915,1915,1916,1917,1918,1787,1851,1915,1851,1851,1851,1851,1851,1851,1851,1787,1787,1723,1723,1724,1725,2667,
2667,1723,1723,1787,1723,1723,1787,1851,1915,1916,1917,1918,1851,1851,1851,1851,1787,1787,1723,1723,1724,1915,1915,1916,1917,1918,1854,1854,1915,1916,1917,1918,1918,1851,1915,1915,1915,1915,1915,1915,1915,1915,1915,1851,1851,1787,1723,1723,1724,2667,
2667,1787,1723,1723,1787,1787,1851,1915,1916,1917,1918,1915,1915,1915,1915,1915,1851,1851,1717,1717,1717,1717,1717,1717,1717,1718,1719,1720,1918,1915,1916,1917,1918,1915,1915,1916,1917,1918,1726,1915,1916,1917,1918,1915,1915,1851,1787,1787,1723,2667,
2667,1723,1787,1787,1723,1851,1915,1915,1916,1917,1918,1915,1915,1915,1915,1717,1717,1717,1781,1781,1717,1717,1717,1717,1718,1719,1720,1717,1717,1717,1717,1717,1717,1717,1717,1717,1717,1718,1719,1720,1719,1720,1917,1918,1918,1915,1851,1851,1723,2667,
2667,1787,1851,1723,1787,1915,1915,1916,1917,1918,1917,1918,1787,1717,1717,1781,1781,1781,1717,1717,1781,1781,1781,1717,1717,1717,1717,1718,1719,1720,1781,1781,1781,1781,1781,1781,1717,1717,1717,1718,1719,1720,1718,1719,1720,1918,1915,1915,1787,2667,
2667,1851,1915,1787,1851,1915,1916,1917,1918,1917,1918,1851,1717,1781,1781,1845,1845,1717,1781,1781,1845,1845,1845,1781,1781,1781,1717,1717,1717,1718,1719,1720,1845,1845,1845,1845,1781,1781,1717,1717,1718,1719,1720,1718,1719,1720,1725,1726,1851,2667,
2667,1915,1723,1851,1915,1915,1916,1917,1918,1851,1915,1717,1781,1845,1845,1909,1717,1781,1845,1845,1909,1909,1909,1845,1845,1717,1717,1717,1717,1717,1717,1717,1717,1718,1719,1720,1845,1845,1781,1717,1718,1719,1720,1717,1718,1719,1720,1726,1915,2667,
2667,1915,1787,1915,1915,1916,1917,1918,1915,1915,1915,1781,1845,1909,1909,1909,1781,1845,1909,1909,1909,1910,1717,1717,1717,1781,1781,1781,1781,1781,1781,1781,1717,1717,1718,1719,1720,1909,1845,1717,1717,1718,1719,1720,1718,1719,1720,1723,1723,2667,
2667,1916,1851,1915,1916,1917,1918,882,883,883,1717,1845,1909,1909,1910,1717,1845,1909,1909,1910,1717,1717,1781,1781,1525,1525,1526,1845,1845,1845,1845,1845,1781,1781,1782,1783,1784,1719,1909,1781,1717,1718,1719,1720,1717,1718,1719,1720,1787,2667,
2667,1917,1915,1915,1916,882,882,882,883,947,1781,1909,1909,1910,1911,1781,1909,1909,1717,1717,1781,1781,1525,1525,1525,1525,1525,1525,1525,1526,1909,1909,1845,1845,1846,1847,1848,1719,1720,1845,1717,1718,1719,1720,1717,1718,1719,1720,1851,2667,
2667,1917,1915,1916,882,882,882,882,883,1011,1845,1909,1910,1911,1912,1845,1909,1717,1781,1781,1525,1525,1525,1525,1589,1589,1589,1589,1525,1525,1525,1526,1909,1909,1910,1911,1912,1719,1720,1717,1718,1719,1720,1784,1717,1718,1719,1720,1915,2667,
2667,1917,1915,1916,946,946,882,882,883,1011,1909,1910,1911,1912,1717,1717,1717,1781,1845,1845,1525,1525,1589,1589,1333,1333,1334,1589,1589,1589,1525,1526,1781,1717,1717,1718,1719,1720,1720,1717,1718,1719,1720,1848,1718,1719,1720,1720,1725,2667,
2667,1916,1915,1916,1010,1010,882,882,882,883,1909,1910,1911,1717,1781,1781,1781,1845,1909,1525,1589,1589,1333,1589,1589,1589,1589,1589,1589,1525,1525,1525,1526,1781,1717,1718,1719,1720,1717,1718,1719,1720,1720,1912,1718,1719,1720,1784,1726,2667,
2667,1726,1726,1915,1010,1011,882,946,946,947,1909,1910,1911,1781,1717,1845,1845,1909,1525,1589,1525,1589,1397,1589,1128,1129,1130,1131,1589,1589,1589,1525,1526,1845,1781,1717,1718,1719,1720,1718,1719,1720,1784,1717,1718,1719,1720,1848,1725,2667,
2667,1790,1790,1790,1010,1011,882,1010,1010,1011,1910,1911,1912,1845,1781,1909,1909,1909,1589,1589,1589,1590,1526,1589,1192,1193,1194,1195,1589,1526,1525,1526,1526,1909,1845,1717,1718,1719,1720,1719,1720,1720,1848,1718,1719,1720,1720,1912,1724,2667,
2667,1854,1854,1854,1010,1011,882,946,882,882,883,1910,1911,1909,1845,1909,1910,1911,1589,1590,1589,1590,1590,1589,1256,1257,1258,1259,1589,1526,1526,1526,1590,1720,1909,1717,1718,1719,1720,1720,1720,1784,1912,1719,1720,1720,1784,1723,1724,2667,
2667,1918,1918,1918,882,883,882,1010,946,882,883,1910,1911,1909,1909,1909,1910,1911,1589,1590,1590,1589,1590,1589,1320,1321,1322,1323,1589,1590,1590,1590,1720,1720,1784,1717,1718,1719,1720,1720,1784,1848,1718,1719,1720,1784,1848,1724,1725,2667,
2667,1915,1916,1917,882,883,883,1010,1010,882,882,883,1909,1909,1909,1910,1911,1912,1848,1589,1590,1589,1589,1589,1589,1589,1589,1589,1589,1590,1590,1784,1784,1784,1717,1718,1719,1720,1720,1784,1848,1912,1720,1720,1784,1848,1912,1725,1726,2667,
2667,1917,1915,1916,882,883,883,883,1010,946,882,882,883,1909,1909,1910,1911,1912,1912,1848,1784,1589,1590,1590,949,885,886,1590,1589,1589,1590,1848,1717,1718,1719,1720,1720,1720,1784,1848,1912,1720,1720,1784,1848,1912,1723,1723,1723,2667,
2667,1917,1918,1915,882,883,947,947,883,1010,946,882,882,883,1909,1909,1910,1911,1912,1912,1848,1784,1784,1720,885,885,885,886,1848,1717,1718,1719,1720,1720,1720,1720,1784,1784,1848,1912,1720,1720,1784,1848,1912,1787,1787,1787,1787,2667,
2667,1723,1724,1725,882,883,1011,883,947,883,882,882,883,883,883,1909,1909,1910,1911,1912,1912,1848,1848,1784,885,886,885,886,1720,1720,1720,1720,1720,1784,1784,1784,1848,1848,1912,1784,1784,1784,1848,1912,1851,1851,1851,1851,1851,2667,
2667,1724,1725,1726,882,883,1011,947,1011,947,883,882,882,882,883,883,1909,1909,1909,1910,1911,1912,1912,1848,885,885,886,886,886,1784,1784,1784,1784,1848,1848,1848,1912,1912,1784,1848,1848,1848,1912,1915,1915,1915,1915,1915,1915,2667,
2667,1724,1725,1726,882,883,1011,1011,883,1011,947,883,883,946,947,947,883,1909,1910,1909,1910,1911,1912,1912,885,886,886,950,950,1848,1848,1848,1848,1912,1912,1912,1848,1848,1848,1912,1912,1912,1724,1725,1726,1790,1854,1918,1723,2667,
2667,1725,1726,1726,882,882,883,1011,883,1011,1011,947,947,1010,1011,1011,947,883,1910,1911,1912,1909,1910,1911,949,950,950,1014,1014,1912,1912,1912,1912,1848,1848,1848,1912,1912,1912,1848,1912,1854,1726,1726,1790,1854,1918,1724,1725,2667,
2667,1725,1726,1790,946,882,882,883,947,883,1011,1011,1011,947,1010,1011,1011,882,883,1911,1912,1912,1912,1848,1013,1014,1014,1014,1912,1912,1912,1912,1912,1912,1912,1912,1848,1912,1912,1912,1912,1918,1726,1790,1854,1918,1724,1725,1726,2667,
2667,1725,1726,1854,1010,946,882,882,883,947,883,883,1011,1011,947,1010,1011,882,882,882,883,1911,1912,1013,1014,1013,1013,1014,1912,1912,1912,1912,1912,1912,1912,1912,1912,1848,1912,1912,1918,1726,1790,1854,1918,1725,1726,1726,1790,2667,
2667,1725,1726,1918,1917,1010,946,882,882,883,947,883,883,1011,1011,1010,1011,883,883,882,882,882,882,1008,1008,1008,1013,1014,1912,1912,1912,1912,1912,1912,1912,1912,1912,1912,1918,1854,1790,1790,1854,1918,1726,1726,1790,1790,1723,2667,
2667,1725,1726,1916,1917,1918,1010,946,882,882,882,883,947,883,883,1010,1011,947,947,883,883,946,946,1008,1008,1008,1008,1008,882,883,882,882,882,883,883,882,883,883,1854,1918,1854,1854,1918,1726,1790,1790,1854,1723,1724,2667,
2667,1725,1726,1915,1916,1917,1918,1010,946,946,882,882,883,947,883,1010,1011,1011,1011,947,947,883,883,1008,1008,1008,1008,1008,882,882,882,882,882,882,882,883,883,947,883,883,1918,1918,1726,1790,1854,1723,1724,1725,1726,2667,
2667,1725,1726,1726,1726,1726,1726,1726,1010,1010,946,882,882,882,883,1010,1011,883,883,883,1011,947,947,1008,1008,1008,1008,1008,946,882,883,883,883,883,883,883,947,1011,947,947,1790,1790,1790,1854,1723,1724,1725,1726,1726,2667,
2667,1726,1726,1790,1790,1790,1790,1790,1790,1790,1010,946,946,882,882,1010,1011,947,883,883,883,883,883,1011,1008,1008,1008,1008,883,883,947,947,947,947,947,947,1011,1011,1011,1011,1854,1723,1724,1725,1726,1726,1726,1790,1790,2667,
2667,1790,1790,1854,1854,1854,1854,1854,1854,1854,1790,1010,1010,946,946,1010,1011,1011,947,947,883,883,947,1008,1008,1008,1008,1008,947,947,1011,1011,1011,1011,1011,1011,1790,1790,1854,1854,1723,1724,1725,1726,1790,1790,1790,1854,1854,2667,
2667,1854,1854,1918,1918,1918,1918,1918,1918,1918,1854,1854,1790,1010,1010,1010,1010,1011,1011,1011,947,947,883,1008,1008,1008,1008,1008,1008,883,883,1854,1918,1918,1918,1854,1723,1724,1725,1726,1726,1726,1726,1790,1854,1854,1854,1918,1918,2667,
2667,1918,1918,1724,1725,1726,1915,1916,1917,1918,1918,1918,1854,1790,1726,1726,1010,1010,1010,1011,1011,1011,947,1008,1008,1008,1008,1008,1008,947,947,1918,1918,1723,1724,1725,1726,1726,1726,1790,1790,1790,1790,1854,1723,1723,1724,1725,1726,2667,
2667,1725,1726,1726,1726,1726,1726,1726,1726,1726,1917,1918,1918,1854,1790,1726,1790,1854,1010,1010,1010,1011,1011,1008,1008,1008,1008,1008,1008,1011,1011,1725,1726,1726,1726,1726,1790,1790,1790,1854,1723,1724,1725,1726,1787,1787,1723,1724,1725,2667,
2667,1726,1726,1790,1790,1723,1724,1725,1726,1726,1726,1726,1918,1918,1854,1790,1854,1918,1918,1790,1723,1010,1010,1008,1008,1019,1020,1019,1020,1726,1726,1726,1790,1723,1723,1723,1723,1724,1725,1726,1787,1788,1789,1790,1726,1851,1723,1723,1724,2667,
2667,1726,1790,1723,1724,1725,1726,1726,1790,1790,1790,1790,1726,1918,1918,1854,1726,1854,1723,1723,1787,1851,1915,1019,1020,1019,1019,1019,1020,1790,1723,1723,1723,1787,1787,1787,1787,1723,1723,1723,1851,1852,1853,1854,1790,1726,1787,1723,1723,2667,
2667,1726,1723,1724,1725,1726,1726,1790,1854,1854,1854,1854,1790,1726,1918,1918,1790,1723,1787,1787,1723,1723,1723,1019,1020,1020,1020,1019,1020,1723,1787,1787,1787,1851,1851,1851,1851,1787,1787,1723,1915,1916,1917,1918,1854,1790,1726,1723,1724,2667,
2667,1723,1724,1725,1726,1790,1790,1854,1918,1918,1918,1918,1854,1790,1917,1918,1723,1723,1723,1723,1787,1787,1019,1019,1019,1019,1020,1019,1020,1787,1851,1851,1851,1915,1915,1915,1915,1851,1723,1723,1915,1916,1917,1918,1918,1854,1790,1726,1726,2667,
2667,1723,1724,1725,1726,1854,1854,1918,1851,1915,1916,1917,1918,1854,1723,1723,1787,1787,1787,1787,1851,1851,1019,1020,2808,2808,2808,1019,1020,1851,1915,1915,1915,1915,1916,1723,1723,1723,1723,1723,1787,1915,1916,1917,1918,1918,1854,1790,1790,2667,
2667,1723,1723,1724,1725,1726,1918,1787,1915,1915,1916,1917,1918,1918,1787,1787,1851,1851,1851,1851,1915,1915,1915,1019,2808,2808,2808,1019,1020,1915,1916,1917,1918,1723,1723,1787,1787,1787,1723,1787,1851,1915,1915,1916,1917,1918,1918,1854,1854,2667,
2667,1787,1723,1723,1723,1723,1723,1723,1723,1723,1723,1723,1723,1723,1851,1851,1915,1915,1915,1915,1915,1916,1723,1787,2808,2808,2808,1019,1020,1917,1918,1790,1723,1787,1787,1851,1851,1851,1787,1851,1915,1915,1916,1915,1916,1917,1918,1918,1918,2667,
2667,1851,1787,1787,1787,1787,1787,1787,1787,1787,1787,1787,1787,1787,1915,1915,1915,1916,1917,1918,1918,1851,1787,1851,1019,1019,1019,1020,1917,1918,1790,1854,1787,1851,1851,1915,1915,1915,1851,1915,1915,1916,1917,1918,1854,1854,1854,1854,1915,2667,
2667,2667,2667,2667,2667,2667,2667,2667,2667,2667,2667,2667,2667,2667,2667,2667,2667,2667,2667,2667,2667,2667,2667,2667,2667,2667,2667,2667,2667,2667,2667,2667,2667,2667,2667,2667,2667,2667,2667,2667,2667,2667,2667,2667,2667,2667,2667,2667,2667,2667
</data>
 </layer>
 <layer id="2" name="Calque de Tuiles 2" width="50" height="50">
  <data encoding="csv">
0,0,0,0,0,0,0,0,0,0,0,0,0,0,0,0,0,0,0,0,0,0,0,0,0,0,0,0,0,0,0,0,0,0,0,0,0,0,0,0,0,0,0,0,0,0,0,0,0,0,
0,0,0,0,0,0,0,0,0,0,0,0,0,0,0,0,0,0,0,0,0,0,0,0,0,0,0,0,0,0,0,0,0,0,0,0,0,0,0,0,0,0,0,0,0,0,0,0,0,0,
0,0,0,0,0,0,0,0,0,0,0,0,0,0,0,0,0,0,0,0,0,0,0,0,0,0,0,0,0,0,0,0,0,0,0,0,0,0,0,0,0,0,0,0,0,0,0,0,0,0,
0,0,0,0,0,0,0,0,0,0,0,0,0,0,0,0,0,0,0,0,0,0,0,0,0,0,0,0,0,0,0,0,0,0,0,0,0,0,0,0,0,0,0,0,0,0,0,0,0,0,
0,0,0,0,0,0,0,0,0,0,0,0,0,0,0,0,0,0,0,0,0,0,0,0,0,0,0,0,0,0,0,0,0,0,0,0,0,0,0,0,0,0,0,0,0,0,0,0,0,0,
0,0,0,0,0,0,0,0,0,0,0,0,0,0,0,0,0,0,0,0,0,0,0,0,0,0,0,0,0,0,0,550,551,0,0,0,0,0,0,0,0,0,0,0,0,0,0,0,0,0,
0,0,0,0,0,0,0,0,0,0,0,0,0,0,550,551,0,0,0,0,0,0,0,0,0,0,0,0,0,0,0,614,615,0,0,0,0,0,0,0,0,0,0,0,0,0,0,0,0,0,
0,0,0,0,0,0,0,0,0,0,0,0,0,0,614,615,0,0,0,0,0,0,0,0,0,0,0,0,0,0,0,678,679,0,0,0,0,0,0,0,0,0,0,0,0,0,0,0,0,0,
0,0,0,0,0,0,0,0,0,0,0,0,0,0,678,679,0,0,0,0,0,0,0,0,0,0,0,0,0,0,0,742,743,0,0,0,0,0,0,0,0,0,0,0,0,0,0,0,0,0,
0,0,0,0,0,0,0,0,0,0,0,0,0,0,742,743,0,0,0,0,0,0,0,0,0,0,0,0,0,0,0,0,0,0,0,0,0,0,0,0,0,0,0,0,0,0,0,0,0,0,
0,0,0,0,0,0,0,0,0,0,0,0,0,0,0,0,0,0,0,0,0,0,0,0,0,0,0,0,0,0,0,0,0,0,0,0,0,0,0,0,0,0,0,0,0,0,0,0,0,0,
0,0,0,0,0,0,0,0,0,0,0,0,0,0,0,0,0,0,0,0,0,0,0,0,0,0,0,0,0,0,0,0,0,0,0,0,0,0,0,0,0,0,0,0,0,0,0,0,0,0,
0,0,0,0,0,0,0,0,0,0,0,0,0,0,0,0,0,0,0,0,0,0,0,0,0,0,0,0,0,0,0,0,0,0,0,0,0,0,0,0,0,0,0,0,0,0,0,0,0,0,
0,0,0,0,0,0,0,0,0,0,0,0,0,0,0,0,0,0,0,0,0,0,0,0,0,0,0,0,0,0,0,0,0,0,0,0,0,0,0,0,0,0,0,0,550,551,0,0,0,0,
0,0,0,0,0,0,0,0,0,0,0,0,0,0,0,0,0,0,0,0,0,0,0,489,0,0,0,0,489,0,0,0,0,0,0,0,0,0,0,0,0,0,0,0,614,615,0,0,0,0,
0,0,0,0,0,0,0,0,0,0,0,0,0,0,0,0,0,0,0,0,0,0,0,553,0,0,0,0,553,0,0,0,0,0,0,0,0,0,0,0,0,0,0,0,678,679,0,0,0,0,
0,0,0,0,0,0,0,0,0,0,0,0,0,0,0,0,0,0,0,0,0,0,0,617,0,0,0,0,617,0,0,0,0,0,0,0,0,0,0,0,0,0,0,0,742,743,0,0,0,0,
0,0,0,0,0,0,0,0,0,0,0,0,0,0,0,0,0,0,0,0,0,0,0,681,0,0,0,0,681,0,0,0,0,0,0,0,0,0,0,0,0,0,0,0,0,0,0,0,0,0,
0,0,0,0,0,0,0,0,0,0,0,0,0,0,0,0,0,0,0,0,0,0,489,1063,1064,1065,1066,1067,1068,0,0,0,0,0,0,0,0,0,0,0,0,0,0,0,0,0,0,0,0,0,
0,0,0,0,0,0,0,0,0,0,0,0,0,0,0,0,0,0,0,0,0,0,553,1127,1128,1129,1130,1131,1132,0,0,0,0,0,0,0,0,0,0,0,0,0,0,0,0,0,0,0,0,0,
0,0,0,0,0,0,0,0,0,0,0,0,0,0,0,0,0,0,0,0,0,0,617,1191,1192,1193,1194,1195,1196,0,0,0,0,0,0,0,0,0,0,0,0,0,0,0,0,0,0,0,0,0,
0,0,0,0,0,0,0,0,0,0,0,0,0,0,0,0,0,0,0,0,0,0,681,1255,1256,1257,1258,1259,1260,489,0,0,0,0,0,0,0,0,0,0,0,0,0,0,0,0,0,0,0,0,
0,0,0,0,0,0,0,0,0,0,550,551,0,0,0,0,0,0,0,0,0,0,745,1319,1320,1321,1322,1323,1324,553,0,0,0,0,0,0,0,0,0,0,0,0,0,0,0,0,0,0,0,0,
0,0,0,0,0,0,0,0,0,0,614,615,0,0,0,0,0,0,0,0,0,0,0,1383,1384,1385,1386,1387,1388,617,0,0,0,0,0,0,0,0,0,0,0,0,0,0,0,0,0,0,0,0,
0,0,0,0,0,0,0,0,0,0,678,679,0,0,0,0,0,0,0,0,0,0,0,0,0,0,0,0,0,681,0,0,0,0,0,0,0,0,0,0,0,0,0,0,550,551,0,0,0,0,
0,0,0,0,0,0,0,0,0,0,742,743,0,0,0,0,0,0,0,0,0,0,0,0,0,0,0,0,0,745,0,0,0,0,0,0,0,0,0,0,0,0,0,0,614,615,0,0,0,0,
0,0,0,0,0,0,0,0,0,0,0,0,0,0,0,0,0,0,0,0,0,0,0,0,0,0,0,0,0,0,0,0,0,0,0,0,0,0,0,0,0,0,0,0,678,679,0,0,0,0,
0,0,0,0,0,0,0,0,0,0,0,0,0,0,0,0,0,0,0,0,0,0,0,0,0,0,0,0,0,0,0,0,0,0,0,0,0,0,0,0,0,0,0,0,742,743,0,0,0,0,
0,0,0,0,0,0,0,0,0,0,0,0,0,0,0,0,0,550,551,0,0,0,0,0,0,0,0,0,0,0,0,0,0,0,0,0,0,0,0,0,0,0,0,0,0,0,0,0,0,0,
0,0,0,0,0,0,0,0,0,0,0,0,0,0,0,0,0,614,615,0,0,0,0,0,0,0,0,0,0,0,0,0,0,0,0,0,0,0,0,0,0,0,0,0,0,0,0,0,0,0,
0,0,0,0,0,0,0,0,0,0,0,0,0,0,0,0,0,678,679,0,0,0,0,0,0,0,0,0,0,0,0,0,0,0,0,0,0,0,0,0,0,0,0,0,0,0,0,0,0,0,
0,0,0,0,0,0,0,0,0,0,0,0,0,0,0,0,0,742,743,0,0,0,0,0,0,0,0,0,0,0,0,550,551,0,0,0,0,0,0,0,0,0,0,0,0,0,0,0,0,0,
0,0,0,0,0,0,0,0,0,0,0,0,0,0,0,0,0,0,0,0,0,0,0,0,0,0,0,0,0,0,0,614,615,0,0,0,0,0,0,0,0,0,0,0,0,0,0,0,0,0,
0,0,0,0,0,0,0,0,0,0,0,0,0,0,0,0,0,0,0,0,0,0,0,0,0,0,0,0,0,0,0,678,679,0,0,0,0,0,0,0,0,0,0,0,0,0,0,0,0,0,
0,0,0,0,0,0,0,0,0,0,0,0,0,0,0,0,0,0,0,0,0,0,0,0,0,0,0,0,0,0,0,742,743,0,0,0,0,0,0,0,0,0,0,0,0,0,0,0,0,0,
0,0,0,0,0,0,0,0,0,0,0,0,0,0,0,0,0,0,0,0,0,0,0,0,0,0,0,0,0,0,0,0,0,0,0,0,0,0,0,0,0,0,0,0,0,0,0,0,0,0,
0,0,0,0,0,0,0,0,0,0,0,0,0,0,0,0,0,0,0,0,0,0,0,0,0,0,0,0,0,0,0,0,0,0,0,0,0,0,0,0,0,0,0,0,0,0,0,0,0,0,
0,0,0,0,0,0,0,0,0,0,0,0,0,0,0,0,0,0,0,0,0,0,0,0,0,0,0,0,0,0,0,0,0,0,0,0,0,0,0,0,0,0,0,0,0,0,0,0,0,0,
0,0,0,0,0,0,0,0,0,0,0,0,0,0,0,0,0,0,0,0,0,0,0,0,0,0,0,0,0,0,0,0,0,0,0,0,0,0,0,0,0,0,0,0,0,0,0,0,0,0,
0,0,0,0,0,0,0,0,0,0,0,0,0,0,0,0,0,0,0,0,0,0,0,0,0,0,0,0,0,0,0,0,0,0,0,0,0,0,0,0,0,0,0,0,0,0,0,0,0,0,
0,0,0,0,0,0,0,0,0,0,0,0,0,0,0,0,0,0,0,0,0,0,0,0,0,0,0,0,0,0,0,0,0,0,0,0,0,0,0,0,0,0,0,0,0,0,0,0,0,0,
0,0,0,0,0,0,0,0,0,0,0,0,0,0,0,0,0,0,0,0,0,0,0,0,0,0,0,0,0,0,0,0,0,0,0,0,0,0,0,0,0,0,0,0,0,0,0,0,0,0,
0,0,0,0,0,0,0,0,0,0,0,0,0,0,0,0,0,0,0,0,0,0,0,0,0,0,0,0,0,0,0,0,0,0,0,0,0,0,0,0,0,0,0,0,0,0,0,0,0,0,
0,0,0,0,0,0,0,0,0,0,0,0,0,0,0,0,0,0,0,0,0,0,0,0,0,0,0,0,0,0,0,0,0,0,0,0,0,0,0,0,0,0,0,0,0,0,0,0,0,0,
0,0,0,0,0,0,0,0,0,0,0,0,0,0,0,0,0,0,0,0,0,0,0,0,0,0,0,0,0,0,0,0,0,0,0,0,0,0,0,0,0,0,0,0,0,0,0,0,0,0,
0,0,0,0,0,0,0,0,0,0,0,0,0,0,0,0,0,0,0,0,0,0,0,0,0,0,0,0,0,0,0,0,0,0,0,0,0,0,0,0,0,0,0,0,0,0,0,0,0,0,
0,0,0,0,0,0,0,0,0,0,0,0,0,0,0,0,0,0,0,0,0,0,0,0,0,0,0,0,0,0,0,0,0,0,0,0,0,0,0,0,0,0,0,0,0,0,0,0,0,0,
0,0,0,0,0,0,0,0,0,0,0,0,0,0,0,0,0,0,0,0,0,0,0,0,0,0,0,0,0,0,0,0,0,0,0,0,0,0,0,0,0,0,0,0,0,0,0,0,0,0,
0,0,0,0,0,0,0,0,0,0,0,0,0,0,0,0,0,0,0,0,0,0,0,0,0,0,0,0,0,0,0,0,0,0,0,0,0,0,0,0,0,0,0,0,0,0,0,0,0,0,
0,0,0,0,0,0,0,0,0,0,0,0,0,0,0,0,0,0,0,0,0,0,0,0,0,0,0,0,0,0,0,0,0,0,0,0,0,0,0,0,0,0,0,0,0,0,0,0,0,0
</data>
 </layer>
 <objectgroup id="3" name="Calque d'Objets 1">
  <object id="1" x="25.3968" y="24.0602">
   <properties>
    <property name="obj_type" value="coffre"/>
   </properties>
   <point/>
  </object>
  <object id="2" x="412.364" y="415.706">
   <properties>
    <property name="obj_type" value="spawnpoint_joueur"/>
   </properties>
   <point/>
  </object>
  <object id="3" x="384.962" y="722.473" width="50" height="50">
   <properties>
    <property name="map" value="assets/caca.tmx"/>
    <property name="obj_type" value="changement_map"/>
   </properties>
  </object>
  <object id="4" x="150.376" y="303.425">
   <properties>
    <property name="nom" value="bat"/>
    <property name="obj_type" value="bat"/>
   </properties>
   <point/>
  </object>
  <object id="5" x="635.589" y="363.575">
   <properties>
    <property name="nom" value="bat"/>
    <property name="obj_type" value="bat"/>
   </properties>
   <point/>
  </object>
  <object id="7" x="519.299" y="680.367">
   <properties>
    <property name="nom" value="bat"/>
    <property name="obj_type" value="bat"/>
   </properties>
   <point/>
  </object>
  <object id="9" x="602.841" y="124.31">
   <properties>
    <property name="nom" value="bat"/>
    <property name="obj_type" value="bat"/>
   </properties>
   <point/>
  </object>
  <object id="14" x="100.92" y="713.784">
   <properties>
    <property name="nom" value="bat"/>
    <property name="obj_type" value="bat"/>
   </properties>
   <point/>
  </object>
  <object id="13" x="747.202" y="580.785">
   <properties>
    <property name="nom" value="bat"/>
    <property name="obj_type" value="bat"/>
   </properties>
   <point/>
  </object>
  <object id="10" x="314.788" y="78.8632">
   <properties>
    <property name="nom" value="bat"/>
    <property name="obj_type" value="bat"/>
   </properties>
   <point/>
  </object>
  <object id="12" x="469.174" y="54.8031">
   <properties>
    <property name="nom" value="bat"/>
    <property name="obj_type" value="bat"/>
   </properties>
   <point/>
  </object>
  <object id="11" x="88.2213" y="115.622">
   <properties>
    <property name="nom" value="bat"/>
    <property name="obj_type" value="bat"/>
   </properties>
   <point/>
  </object>
  <object id="8" x="215.205" y="628.905">
   <properties>
    <property name="nom" value="bat"/>
    <property name="obj_type" value="bat"/>
   </properties>
   <point/>
  </object>
 </objectgroup>
</map>
